hwangsueun/living-price-dashboard/data/27_final_regional_price_pressure_detail_panel.csv
region,x_quarter,target_quarter,data_type,feature,direction,weight,raw_value,z_score,pressure_z,contribution
강원특별자치도,2017Q1,2017Q2,train,regional_living_food_index_yoy_pct,-1,0.1522778294396732,4.075899128185689,0.7623602381719735,-0.7623602381719735,-0.11609056231994042
강원특별자치도,2017Q2,2017Q3,train,regional_living_food_index_yoy_pct,-1,0.1522778294396732,4.073069755504233,0.7606721235917455,-0.7606721235917455,-0.11583349989581783
강원특별자치도,2017Q3,2017Q4,train,regional_living_food_index_yoy_pct,-1,0.1522778294396732,4.436912818361449,0.9777551481609577,-0.9777551481609577,-0.1488904316854167
강원특별자치도,2017Q4,2018Q1,train,regional_living_food_index_yoy_pct,-1,0.1522778294396732,1.124429597607035,-0.9986021052912667,0.9986021052912667,0.15206496106764208
강원특별자치도,2018Q1,2018Q2,train,regional_living_food_index_yoy_pct,-1,0.1522778294396732,0.476680163678056,-1.3850747926528497,1.3850747926528497,0.21091618303678136
강원특별자치도,2018Q2,2018Q3,train,regional_living_food_index_yoy_pct,-1,0.1522778294396732,1.1537265582278078,-0.9811223908993003,0.9811223908993003,0.14940318810080802
강원특별자치도,2018Q3,2018Q4,train,regional_living_food_index_yoy_pct,-1,0.1522778294396732,2.4196617336152304,-0.22581587323868174,0.22581587323868174,0.03438675102981084
강원특별자치도,2018Q4,2019Q1,train,regional_living_food_index_yoy_pct,-1,0.1522778294396732,4.212367216512658,0.8437824456989108,-0.8437824456989108,-0.12848935935032904
강원특별자치도,2019Q1,2019Q2,train,regional_living_food_index_yoy_pct,-1,0.1522778294396732,2.933933197582061,0.08101862834797376,-0.08101862834797376,-0.01233734086900902
강원특별자치도,2019Q2,2019Q3,train,regional_living_food_index_yoy_pct,-1,0.1522778294396732,2.506916545649185,-0.17375623423992423,0.17375623423992423,0.026459222201667083
강원특별자치도,2019Q3,2019Q4,train,regional_living_food_index_yoy_pct,-1,0.1522778294396732,0.1269493957002376,-1.5937378692588529,1.5937378692588529,0.24269094342654776
강원특별자치도,2019Q4,2020Q1,train,regional_living_food_index_yoy_pct,-1,0.1522778294396732,1.2700188534609635,-0.9117378519031117,0.9117378519031117,0.13883746110579606
강원특별자치도,2020Q1,2020Q2,train,regional_living_food_index_yoy_pct,-1,0.1522778294396732,1.8632639744798007,-0.5577845727877252,0.5577845727877252,0.0849382240390502
강원특별자치도,2020Q2,2020Q3,train,regional_living_food_index_yoy_pct,-1,0.1522778294396732,2.188120450033093,-0.36396247347322597,0.36396247347322597,0.055423415457997484
강원특별자치도,2020Q3,2020Q4,train,regional_living_food_index_yoy_pct,-1,0.1522778294396732,4.543767781305408,1.0415090050132694,-1.0415090050132694,-0.15859873062529437
강원특별자치도,2020Q4,2021Q1,train,regional_living_food_index_yoy_pct,-1,0.1522778294396732,3.743862520458263,0.5642541907263006,-0.5642541907263006,-0.08592340341604042
강원특별자치도,2021Q1,2021Q2,train,regional_living_food_index_yoy_pct,-1,0.1522778294396732,5.246568378240979,1.4608273728110175,-1.4608273728110175,-0.222451621517722
강원특별자치도,2021Q2,2021Q3,train,regional_living_food_index_yoy_pct,-1,0.1522778294396732,5.21149564865413,1.4399016083926393,-1.4399016083926393,-0.21926509153272541
강원특별자치도,2021Q3,2021Q4,train,regional_living_food_index_yoy_pct,-1,0.1522778294396732,3.96371524354171,0.6954269378770725,-0.6954269378770725,-0.10589810463379906
강원특별자치도,2021Q4,2022Q1,train,regional_living_food_index_yoy_pct,-1,0.1522778294396732,5.511733385919948,1.619035204024934,-1.619035204024934,-0.2465431666553354
경기도,2017Q1,2017Q2,train,regional_living_food_index_yoy_pct,-1,0.1522778294396732,4.161159573530693,0.8132299598763412,-0.8132299598763412,-0.12383689312528175
경기도,2017Q2,2017Q3,train,regional_living_food_index_yoy_pct,-1,0.1522778294396732,3.6620029862301617,0.5154135858223208,-0.5154135858223208,-0.07848606211274173
경기도,2017Q3,2017Q4,train,regional_living_food_index_yoy_pct,-1,0.1522778294396732,4.47441239842068,1.0001288666411356,-1.0001288666411356,-0.1522974529720725
경기도,2017Q4,2018Q1,train,regional_living_food_index_yoy_pct,-1,0.1522778294396732,1.828580110257416,-0.5784783248961662,0.5784783248961662,0.08808942369308626
경기도,2018Q1,2018Q2,train,regional_living_food_index_yoy_pct,-1,0.1522778294396732,0.9093792957597602,-1.126909539801427,1.126909539801427,0.1716033386958223
경기도,2018Q2,2018Q3,train,regional_living_food_index_yoy_pct,-1,0.1522778294396732,2.096536713398645,-0.41860491847088743,0.41860491847088743,0.0637442483775181
경기도,2018Q3,2018Q4,train,regional_living_food_index_yoy_pct,-1,0.1522778294396732,2.7135110236385263,-0.05049387549372057,0.05049387549372057,0.0076890977601808755
경기도,2018Q4,2019Q1,train,regional_living_food_index_yoy_pct,-1,0.1522778294396732,3.836603327187671,0.6195869890699348,-0.6195869890699348,-0.09434936184463219
경기도,2019Q1,2019Q2,train,regional_living_food_index_yoy_pct,-1,0.1522778294396732,1.6598553913863556,-0.6791461018340861,0.6791461018340861,0.10341889425970988
경기도,2019Q2,2019Q3,train,regional_living_food_index_yoy_pct,-1,0.1522778294396732,1.702354453396859,-0.6537894965709672,0.6537894965709672,0.09955764544828354
경기도,2019Q3,2019Q4,train,regional_living_food_index_yoy_pct,-1,0.1522778294396732,-0.6064374095440028,-2.0313051671244406,2.0313051671244406,0.3093227417793024
경기도,2019Q4,2020Q1,train,regional_living_food_index_yoy_pct,-1,0.1522778294396732,0.2473494606550108,-1.521902473928068,1.521902473928068,0.23175200534863502
경기도,2020Q1,2020Q2,train,regional_living_food_index_yoy_pct,-1,0.1522778294396732,1.119426062217821,-1.0015874105140736,1.0015874105140736,0.15251955686718605
경기도,2020Q2,2020Q3,train,regional_living_food_index_yoy_pct,-1,0.1522778294396732,1.7365392519523404,-0.6333935065899096,0.6333935065899096,0.09645178836469477
경기도,2020Q3,2020Q4,train,regional_living_food_index_yoy_pct,-1,0.1522778294396732,3.9387196341225774,0.6805135781140876,-0.6805135781140876,-0.10362713057943876
경기도,2020Q4,2021Q1,train,regional_living_food_index_yoy_pct,-1,0.1522778294396732,3.947826443065705,0.6859470570817048,-0.6859470570817048,-0.10445452896293361
경기도,2021Q1,2021Q2,train,regional_living_food_index_yoy_pct,-1,0.1522778294396732,5.341488277268103,1.5174603029837126,-1.5174603029837126,-0.2310755611992286
경기도,2021Q2,2021Q3,train,regional_living_food_index_yoy_pct,-1,0.1522778294396732,5.150994849005142,1.4038044612503495,-1.4038044612503495,-0.21376829631693303
경기도,2021Q3,2021Q4,train,regional_living_food_index_yoy_pct,-1,0.1522778294396732,4.054853985793216,0.7498038817935627,-0.7498038817935627,-0.11417850762496502
경기도,2021Q4,2022Q1,train,regional_living_food_index_yoy_pct,-1,0.1522778294396732,5.259529203191171,1.4685603087065247,-1.4685603087065247,-0.22362917621108597
경상남도,2017Q1,2017Q2,train,regional_living_food_index_yoy_pct,-1,0.1522778294396732,3.3769169737085214,0.3453201027294178,-0.3453201027294178,-0.05258459570552071
경상남도,2017Q2,2017Q3,train,regional_living_food_index_yoy_pct,-1,0.1522778294396732,2.385683714023678,-0.24608849078945444,0.24608849078945444,0.03747382122750313
경상남도,2017Q3,2017Q4,train,regional_living_food_index_yoy_pct,-1,0.1522778294396732,2.9543564880303297,0.09320396349590682,-0.09320396349590682,-0.014192897256331225
경상남도,2017Q4,2018Q1,train,regional_living_food_index_yoy_pct,-1,0.1522778294396732,0.8983831245315432,-1.1334702863226245,1.1334702863226245,0.17260239493557414
경상남도,2018Q1,2018Q2,train,regional_living_food_index_yoy_pct,-1,0.1522778294396732,0.4037260550497246,-1.4286020717808952,1.4286020717808952,0.2175444226238149
경상남도,2018Q2,2018Q3,train,regional_living_food_index_yoy_pct,-1,0.1522778294396732,1.7723651797425743,-0.6120183546174389,0.6120183546174389,0.09319682661838379
경상남도,2018Q3,2018Q4,train,regional_living_food_index_yoy_pct,-1,0.1522778294396732,2.666107294561848,-0.07877679726503149,0.07877679726503149,0.01199595969772818
경상남도,2018Q4,2019Q1,train,regional_living_food_index_yoy_pct,-1,0.1522778294396732,3.0744250708380605,0.1648415835922113,-0.1648415835922113,-0.02510171855082038
경상남도,2019Q1,2019Q2,train,regional_living_food_index_yoy_pct,-1,0.1522778294396732,1.22201512073552,-0.9403787593559516,0.9403787593559516,0.14319883632589708
경상남도,2019Q2,2019Q3,train,regional_living_food_index_yoy_pct,-1,0.1522778294396732,0.9849635877822616,-1.081812990225034,1.081812990225034,0.16473613401111056
경상남도,2019Q3,2019Q4,train,regional_living_food_index_yoy_pct,-1,0.1522778294396732,-1.229989681980237,-2.4033408800344973,2.4033408800344973,0.36597553261528726
경상남도,2019Q4,2020Q1,train,regional_living_food_index_yoy_pct,-1,0.1522778294396732,0.1606161069126699,-1.5736509904823264,1.5736509904823264,0.23963215712624047
경상남도,2020Q1,2020Q2,train,regional_living_food_index_yoy_pct,-1,0.1522778294396732,1.6914084725598633,-0.6603202975385926,0.6603202975385926,0.10055214164413605
경상남도,2020Q2,2020Q3,train,regional_living_food_index_yoy_pct,-1,0.1522778294396732,2.671854734111556,-0.07534764967820783,0.07534764967820783,0.011473776546378378
경상남도,2020Q3,2020Q4,train,regional_living_food_index_yoy_pct,-1,0.1522778294396732,4.640939979106973,1.0994857448668462,-1.0994857448668462,-0.16742730272818565
경상남도,2020Q4,2021Q1,train,regional_living_food_index_yoy_pct,-1,0.1522778294396732,4.407804115869318,0.9603877559434043,-0.9603877559434043,-0.1462457628955002
경상남도,2021Q1,2021Q2,train,regional_living_food_index_yoy_pct,-1,0.1522778294396732,4.852492370295014,1.2257061888497822,-1.2257061888497822,-0.186647877968819
경상남도,2021Q2,2021Q3,train,regional_living_food_index_yoy_pct,-1,0.1522778294396732,4.891359272359774,1.2488957052022338,-1.2488957052022338,-0.19017912718472613
경상남도,2021Q3,2021Q4,train,regional_living_food_index_yoy_pct,-1,0.1522778294396732,3.4792922803202453,0.4064012211268706,-0.4064012211268706,-0.06188589583483251
경상남도,2021Q4,2022Q1,train,regional_living_food_index_yoy_pct,-1,0.1522778294396732,3.90863443930296,0.6625635723206296,-0.6625635723206296,-0.1008937426587814
경상북도,2017Q1,2017Q2,train,regional_living_food_index_yoy_pct,-1,0.1522778294396732,3.84854805770638,0.6267136832229112,-0.6267136832229112,-0.09543459936132785
경상북도,2017Q2,2017Q3,train,regional_living_food_index_yoy_pct,-1,0.1522778294396732,3.128734145298684,0.19724450493111087,-0.19724450493111087,-0.030035965079812477
경상북도,2017Q3,2017Q4,train,regional_living_food_index_yoy_pct,-1,0.1522778294396732,3.5667135591386234,0.4585601807304219,-0.4585601807304219,-0.0698285489890929
경상북도,2017Q4,2018Q1,train,regional_living_food_index_yoy_pct,-1,0.1522778294396732,1.0807797053588697,-1.0246453409570528,1.0246453409570528,0.15603076846641387
경상북도,2018Q1,2018Q2,train,regional_living_food_index_yoy_pct,-1,0.1522778294396732,1.082121336404085,-1.0238448713181263,1.0238448713181263,0.15590887468726577
경상북도,2018Q2,2018Q3,train,regional_living_food_index_yoy_pct,-1,0.1522778294396732,1.8921475875118168,-0.5405514777597809,0.5405514777597809,0.0823140057336672
경상북도,2018Q3,2018Q4,train,regional_living_food_index_yoy_pct,-1,0.1522778294396732,3.080266649948804,0.16832689852899266,-0.16832689852899266,-0.02563245474430712
경상북도,2018Q4,2019Q1,train,regional_living_food_index_yoy_pct,-1,0.1522778294396732,3.690306977533564,0.5323008558207444,-0.5323008558207444,-0.08105761893326338
경상북도,2019Q1,2019Q2,train,regional_living_food_index_yoy_pct,-1,0.1522778294396732,1.408655846858098,-0.8290215906461468,0.8290215906461468,0.1262416083822205
경상북도,2019Q2,2019Q3,train,regional_living_food_index_yoy_pct,-1,0.1522778294396732,1.903957100977549,-0.5335054593976332,0.5335054593976332,0.08124105335128727
경상북도,2019Q3,2019Q4,train,regional_living_food_index_yoy_pct,-1,0.1522778294396732,-0.9224157155310442,-2.219830202680337,2.219830202680337,0.3380309249887915
경상북도,2019Q4,2020Q1,train,regional_living_food_index_yoy_pct,-1,0.1522778294396732,0.2731373973177353,-1.5065163806927535,1.5065163806927535,0.2294090444672049
경상북도,2020Q1,2020Q2,train,regional_living_food_index_yoy_pct,-1,0.1522778294396732,0.6319633953669745,-1.2924267335275867,1.2924267335275867,0.1968079376913878
경상북도,2020Q2,2020Q3,train,regional_living_food_index_yoy_pct,-1,0.1522778294396732,1.3739020045455463,-0.8497570944245185,0.8497570944245185,0.12939916588992909
경상북도,2020Q3,2020Q4,train,regional_living_food_index_yoy_pct,-1,0.1522778294396732,3.709690620396144,0.5438658964916712,-0.5438658964916712,-0.08281871822401365
경상북도,2020Q4,2021Q1,train,regional_living_food_index_yoy_pct,-1,0.1522778294396732,3.5706998571719994,0.4609385622972546,-0.4609385622972546,-0.07019072377166952
경상북도,2021Q1,2021Q2,train,regional_living_food_index_yoy_pct,-1,0.1522778294396732,5.189112039963306,1.4265466705872576,-1.4265466705872576,-0.21723143059142005
경상북도,2021Q2,2021Q3,train,regional_living_food_index_yoy_pct,-1,0.1522778294396732,4.7667137951928895,1.1745273306349864,-1.1745273306349864,-0.17885447252666908
경상북도,2021Q3,2021Q4,train,regional_living_food_index_yoy_pct,-1,0.1522778294396732,4.034724277399615,0.7377937092002924,-0.7377937092002924,-0.11234962461126596
경상북도,2021Q4,2022Q1,train,regional_living_food_index_yoy_pct,-1,0.1522778294396732,5.102442868400314,1.3748364476354857,-1.3748364476354857,-0.2093571100804827
광주광역시,2017Q1,2017Q2,train,regional_living_food_index_yoy_pct,-1,0.1522778294396732,5.163734895965266,1.4114056723481767,-1.4114056723481767,-0.21492579224402292
광주광역시,2017Q2,2017Q3,train,regional_living_food_index_yoy_pct,-1,0.1522778294396732,3.8411293952334447,0.6222874185712338,-0.6222874185712338,-0.09476057738764486
광주광역시,2017Q3,2017Q4,train,regional_living_food_index_yoy_pct,-1,0.1522778294396732,3.6887060373405935,0.5313456721860331,-0.5313456721860331,-0.08091216564265326
광주광역시,2017Q4,2018Q1,train,regional_living_food_index_yoy_pct,-1,0.1522778294396732,1.0890338561407642,-1.0197205912506468,1.0197205912506468,0.1552808382705887
광주광역시,2018Q1,2018Q2,train,regional_living_food_index_yoy_pct,-1,0.1522778294396732,0.0879811468970981,-1.616987853045601,1.616987853045601,0.24623140049210138
광주광역시,2018Q2,2018Q3,train,regional_living_food_index_yoy_pct,-1,0.1522778294396732,1.5223274695534528,-0.7612006475488158,0.7612006475488158,0.11591398237680736
광주광역시,2018Q3,2018Q4,train,regional_living_food_index_yoy_pct,-1,0.1522778294396732,2.1317809274861155,-0.39757683968166674,0.39757683968166674,0.06054213818220914
광주광역시,2018Q4,2019Q1,train,regional_living_food_index_yoy_pct,-1,0.1522778294396732,2.513703911027565,-0.16970662616543053,0.16970662616543053,0.02584255667400181
광주광역시,2019Q1,2019Q2,train,regional_living_food_index_yoy_pct,-1,0.1522778294396732,1.2400715788151828,-0.9296055691179433,0.9296055691179433,0.1415583183003125
광주광역시,2019Q2,2019Q3,train,regional_living_food_index_yoy_pct,-1,0.1522778294396732,0.6851882705764867,-1.2606706879345613,1.2606706879345613,0.19197219599689458
광주광역시,2019Q3,2019Q4,train,regional_living_food_index_yoy_pct,-1,0.1522778294396732,-1.263383297644527,-2.4232648193086965,2.4232648193086965,0.3690095068418502
광주광역시,2019Q4,2020Q1,train,regional_living_food_index_yoy_pct,-1,0.1522778294396732,0.8881012971224234,-1.139604827337486,1.139604827337486,0.1735365495259259
광주광역시,2020Q1,2020Q2,train,regional_living_food_index_yoy_pct,-1,0.1522778294396732,1.2362523774084089,-0.9318842542914652,0.9318842542914652,0.14190531153251276
광주광역시,2020Q2,2020Q3,train,regional_living_food_index_yoy_pct,-1,0.1522778294396732,2.430447822939308,-0.21938046981128895,0.21938046981128895,0.033406781764318834
광주광역시,2020Q3,2020Q4,train,regional_living_food_index_yoy_pct,-1,0.1522778294396732,4.481002984581384,1.0040610685256912,-1.0040610685256912,-0.15289624013997122
광주광역시,2020Q4,2021Q1,train,regional_living_food_index_yoy_pct,-1,0.1522778294396732,4.0102938022732015,0.7232175306950395,-0.7232175306950395,-0.11012999578696082
광주광역시,2021Q1,2021Q2,train,regional_living_food_index_yoy_pct,-1,0.1522778294396732,5.9628343884010615,1.8881797336355843,-1.8881797336355843,-0.28752791143000705
광주광역시,2021Q2,2021Q3,train,regional_living_food_index_yoy_pct,-1,0.1522778294396732,5.613893376413559,1.6799878563914796,-1.6799878563914796,-0.2558249042563039
광주광역시,2021Q3,2021Q4,train,regional_living_food_index_yoy_pct,-1,0.1522778294396732,4.250271819709406,0.8663978168493975,-0.8663978168493975,-0.13193317898109777
광주광역시,2021Q4,2022Q1,train,regional_living_food_index_yoy_pct,-1,0.1522778294396732,4.938635247913603,1.277102404217168,-1.277102404217168,-0.19447438208637846
대구광역시,2017Q1,2017Q2,train,regional_living_food_index_yoy_pct,-1,0.1522778294396732,4.241603527581628,0.8612259741923727,-0.8612259741923727,-0.13114562200708252
대구광역시,2017Q2,2017Q3,train,regional_living_food_index_yoy_pct,-1,0.1522778294396732,2.871022263014744,0.043483500298251,-0.043483500298251,-0.006621573041857044
대구광역시,2017Q3,2017Q4,train,regional_living_food_index_yoy_pct,-1,0.1522778294396732,3.999071525682263,0.7165218808569409,-0.7165218808569409,-0.10911039676292708
대구광역시,2017Q4,2018Q1,train,regional_living_food_index_yoy_pct,-1,0.1522778294396732,1.6487000634115567,-0.6858018075051359,0.6858018075051359,0.10443241067268666
대구광역시,2018Q1,2018Q2,train,regional_living_food_index_yoy_pct,-1,0.1522778294396732,1.7124206864713276,-0.647783587581899,0.647783587581899,0.09864307866361602
대구광역시,2018Q2,2018Q3,train,regional_living_food_index_yoy_pct,-1,0.1522778294396732,3.0781450612582306,0.16706107560461206,-0.16706107560461206,-0.025439697976927463
대구광역시,2018Q3,2018Q4,train,regional_living_food_index_yoy_pct,-1,0.1522778294396732,3.1374549628543136,0.2024476863160348,-0.2024476863160348,-0.030828294247289608
대구광역시,2018Q4,2019Q1,train,regional_living_food_index_yoy_pct,-1,0.1522778294396732,4.182889840170367,0.8261950882198413,-0.8261950882198413,-0.12581119472783675
대구광역시,2019Q1,2019Q2,train,regional_living_food_index_yoy_pct,-1,0.1522778294396732,1.9200320884966928,-0.5239144921185964,0.5239144921185964,0.07978056167180864
대구광역시,2019Q2,2019Q3,train,regional_living_food_index_yoy_pct,-1,0.1522778294396732,2.639995777695692,-0.09435595112571553,0.09435595112571553,0.01436831943213985
대구광역시,2019Q3,2019Q4,train,regional_living_food_index_yoy_pct,-1,0.1522778294396732,0.4977277645531242,-1.3725169694474133,1.3725169694474133,0.20900390497657034
대구광역시,2019Q4,2020Q1,train,regional_living_food_index_yoy_pct,-1,0.1522778294396732,1.1025881915695424,-1.0116335437533046,1.0116335437533046,0.15404936023111787
대구광역시,2020Q1,2020Q2,train,regional_living_food_index_yoy_pct,-1,0.1522778294396732,1.473740899158016,-0.7901892987877853,0.7901892987877853,0.12032831126586133
대구광역시,2020Q2,2020Q3,train,regional_living_food_index_yoy_pct,-1,0.1522778294396732,1.3822041219301529,-0.8448037259638801,0.8448037259638801,0.12864487769232813
대구광역시,2020Q3,2020Q4,train,regional_living_food_index_yoy_pct,-1,0.1522778294396732,4.189737910668145,0.8302809153466436,-0.8302809153466436,-0.12643337561417192
대구광역시,2020Q4,2021Q1,train,regional_living_food_index_yoy_pct,-1,0.1522778294396732,3.99158591253026,0.7120556708073911,-0.7120556708073911,-0.10843029199075997
대구광역시,2021Q1,2021Q2,train,regional_living_food_index_yoy_pct,-1,0.1522778294396732,5.460298020004073,1.5883468497791253,-1.5883468497791253,-0.24187001068170785
대구광역시,2021Q2,2021Q3,train,regional_living_food_index_yoy_pct,-1,0.1522778294396732,5.345911949685522,1.5200996392418666,-1.5200996392418666,-0.23147747359578172
대구광역시,2021Q3,2021Q4,train,regional_living_food_index_yoy_pct,-1,0.1522778294396732,3.483909064068502,0.4091557751699881,-0.4091557751699881,-0.062305353345592715
대구광역시,2021Q4,2022Q1,train,regional_living_food_index_yoy_pct,-1,0.1522778294396732,4.595443833464241,1.072340962100323,-1.072340962100323,-0.16329375412788805
대전광역시,2017Q1,2017Q2,train,regional_living_food_index_yoy_pct,-1,0.1522778294396732,3.928783252421853,0.6745851435414215,-0.6745851435414215,-0.10272436143073804
대전광역시,2017Q2,2017Q3,train,regional_living_food_index_yoy_pct,-1,0.1522778294396732,3.00471651439691,0.12325072804101711,-0.12325072804101711,-0.01876835334294555
대전광역시,2017Q3,2017Q4,train,regional_living_food_index_yoy_pct,-1,0.1522778294396732,3.5095939069701654,0.42448035862883554,-0.42448035862883554,-0.06463894765177312
대전광역시,2017Q4,2018Q1,train,regional_living_food_index_yoy_pct,-1,0.1522778294396732,0.9539448807838856,-1.1003199659539518,1.1003199659539518,0.16755433610460288
대전광역시,2018Q1,2018Q2,train,regional_living_food_index_yoy_pct,-1,0.1522778294396732,1.006097883178514,-1.0692034416720688,1.0692034416720688,0.16281597932725086
대전광역시,2018Q2,2018Q3,train,regional_living_food_index_yoy_pct,-1,0.1522778294396732,2.264916213043011,-0.31814311284730773,0.31814311284730773,0.04844614267556903
대전광역시,2018Q3,2018Q4,train,regional_living_food_index_yoy_pct,-1,0.1522778294396732,3.1516452977957465,0.21091419603741243,-0.21091419603741243,-0.032117555970590884
대전광역시,2018Q4,2019Q1,train,regional_living_food_index_yoy_pct,-1,0.1522778294396732,4.327633071506543,0.9125545702383537,-0.9125545702383537,-0.1389618292011503
대전광역시,2019Q1,2019Q2,train,regional_living_food_index_yoy_pct,-1,0.1522778294396732,1.5893277530734995,-0.7212256537168342,0.7212256537168342,0.10982667708420889
대전광역시,2019Q2,2019Q3,train,regional_living_food_index_yoy_pct,-1,0.1522778294396732,0.8725420615371737,-1.148888076808581,1.148888076808581,0.17495018260553125
대전광역시,2019Q3,2019Q4,train,regional_living_food_index_yoy_pct,-1,0.1522778294396732,-1.538901134786519,-2.587649554144283,2.587649554144283,0.3940416574556295
대전광역시,2019Q4,2020Q1,train,regional_living_food_index_yoy_pct,-1,0.1522778294396732,-0.0061544773822919,-1.673152854180446,1.673152854180446,0.25478408495539234
대전광역시,2020Q1,2020Q2,train,regional_living_food_index_yoy_pct,-1,0.1522778294396732,0.8507219807609268,-1.161906791784359,1.161906791784359,0.1769326442641365
대전광역시,2020Q2,2020Q3,train,regional_living_food_index_yoy_pct,-1,0.1522778294396732,2.5473884612200903,-0.14960910395455237,0.14960910395455237,0.022782149614613664
대전광역시,2020Q3,2020Q4,train,regional_living_food_index_yoy_pct,-1,0.1522778294396732,5.209153849342907,1.4385043991853996,-1.4385043991853996,-0.21905232754737383
대전광역시,2020Q4,2021Q1,train,regional_living_food_index_yoy_pct,-1,0.1522778294396732,4.078618029625369,0.7639824412817329,-0.7639824412817329,-0.11633758788840486
대전광역시,2021Q1,2021Q2,train,regional_living_food_index_yoy_pct,-1,0.1522778294396732,5.330882352941169,1.5111323930514389,-1.5111323930514389,-0.2301119608098522
대전광역시,2021Q2,2021Q3,train,regional_living_food_index_yoy_pct,-1,0.1522778294396732,4.701846433255974,1.1358249213750427,-1.1358249213750427,-0.17296095365047895
대전광역시,2021Q3,2021Q4,train,regional_living_food_index_yoy_pct,-1,0.1522778294396732,3.753324795586632,0.5698997547451434,-0.5698997547451434,-0.08678309765079253
대전광역시,2021Q4,2022Q1,train,regional_living_food_index_yoy_pct,-1,0.1522778294396732,5.164596885472106,1.4119199690557247,-1.4119199690557247,-0.2150041082303363
부산광역시,2017Q1,2017Q2,train,regional_living_food_index_yoy_pct,-1,0.1522778294396732,3.296990556687085,0.2976328712792953,-0.2976328712792953,-0.04532288760830873
부산광역시,2017Q2,2017Q3,train,regional_living_food_index_yoy_pct,-1,0.1522778294396732,2.48571802363613,-0.1864041029085016,0.1864041029085016,0.028385212189556096
부산광역시,2017Q3,2017Q4,train,regional_living_food_index_yoy_pct,-1,0.1522778294396732,3.1203276344015984,0.19222885121139296,-0.19222885121139296,-0.029272192218152814
부산광역시,2017Q4,2018Q1,train,regional_living_food_index_yoy_pct,-1,0.1522778294396732,1.1312362337745796,-0.9945409995090394,0.9945409995090394,0.1514465446939996
부산광역시,2018Q1,2018Q2,train,regional_living_food_index_yoy_pct,-1,0.1522778294396732,1.5152154199793433,-0.7654439749337321,0.7654439749337321,0.11656014706058433
부산광역시,2018Q2,2018Q3,train,regional_living_food_index_yoy_pct,-1,0.1522778294396732,2.590315305731661,-0.12399726689325062,0.12399726689325062,0.018882034658956052
부산광역시,2018Q3,2018Q4,train,regional_living_food_index_yoy_pct,-1,0.1522778294396732,3.3694761394440054,0.3408806095183208,-0.3408806095183208,-0.05190855931552269
부산광역시,2018Q4,2019Q1,train,regional_living_food_index_yoy_pct,-1,0.1522778294396732,4.346401082635532,0.9237523009001265,-0.9237523009001265,-0.14066699532097512
부산광역시,2019Q1,2019Q2,train,regional_living_food_index_yoy_pct,-1,0.1522778294396732,2.288236821604772,-0.3042291242126847,0.3042291242126847,0.04632735068744035
부산광역시,2019Q2,2019Q3,train,regional_living_food_index_yoy_pct,-1,0.1522778294396732,1.553313493503672,-0.7427131718067611,0.7427131718067611,0.11309874969898866
부산광역시,2019Q3,2019Q4,train,regional_living_food_index_yoy_pct,-1,0.1522778294396732,-0.2002337754739014,-1.788948166327238,1.788948166327238,0.27241714374839526
부산광역시,2019Q4,2020Q1,train,regional_living_food_index_yoy_pct,-1,0.1522778294396732,-0.0688991336947109,-1.7105887741094754,1.7105887741094754,0.26048474558526236
부산광역시,2020Q1,2020Q2,train,regional_living_food_index_yoy_pct,-1,0.1522778294396732,0.0528036718861146,-1.6379761126873382,1.6379761126873382,0.2494274471140614
부산광역시,2020Q2,2020Q3,train,regional_living_food_index_yoy_pct,-1,0.1522778294396732,1.0343384012171164,-1.0523540423099405,1.0523540423099405,0.16025018936502375
부산광역시,2020Q3,2020Q4,train,regional_living_food_index_yoy_pct,-1,0.1522778294396732,2.9250010184543878,0.07568934036924366,-0.07568934036924366,-0.011525808463149056
부산광역시,2020Q4,2021Q1,train,regional_living_food_index_yoy_pct,-1,0.1522778294396732,2.8724385817271214,0.04432853152523767,-0.04432853152523767,-0.006750252562911318
부산광역시,2021Q1,2021Q2,train,regional_living_food_index_yoy_pct,-1,0.1522778294396732,4.952806251902975,1.285557380335271,-1.285557380335271,-0.19576188749760745
부산광역시,2021Q2,2021Q3,train,regional_living_food_index_yoy_pct,-1,0.1522778294396732,4.759979787771584,1.1705095580079399,-1.1705095580079399,-0.17824265483184032
부산광역시,2021Q3,2021Q4,train,regional_living_food_index_yoy_pct,-1,0.1522778294396732,3.6710864832772527,0.5208331559995371,-0.5208331559995371,-0.07931134249582421
부산광역시,2021Q4,2022Q1,train,regional_living_food_index_yoy_pct,-1,0.1522778294396732,4.277547802089488,0.8826717364527198,-0.8826717364527198,-0.13441133613476744
서울특별시,2017Q1,2017Q2,train,regional_living_food_index_yoy_pct,-1,0.1522778294396732,4.427306166446265,0.9720234432952526,-0.9720234432952526,-0.14801762010947833
서울특별시,2017Q2,2017Q3,train,regional_living_food_index_yoy_pct,-1,0.1522778294396732,4.48478615663217,1.0063182571740088,-1.0063182571740088,-0.1532399599279729
서울특별시,2017Q3,2017Q4,train,regional_living_food_index_yoy_pct,-1,0.1522778294396732,5.474597602172615,1.5968785406758714,-1.5968785406758714,-0.24316919805291456
서울특별시,2017Q4,2018Q1,train,regional_living_food_index_yoy_pct,-1,0.1522778294396732,1.512661740540433,-0.766967600125389,0.766967600125389,0.11679216139764946
서울특별시,2018Q1,2018Q2,train,regional_living_food_index_yoy_pct,-1,0.1522778294396732,1.2024986431984352,-0.9520230543973829,0.9520230543973829,0.14497200430016138
서울특별시,2018Q2,2018Q3,train,regional_living_food_index_yoy_pct,-1,0.1522778294396732,1.5534396062907962,-0.7426379279775926,0.7426379279775926,0.11308729173200416
서울특별시,2018Q3,2018Q4,train,regional_living_food_index_yoy_pct,-1,0.1522778294396732,1.7782941355020343,-0.6084809073491212,0.6084809073491212,0.09265815182660707
서울특별시,2018Q4,2019Q1,train,regional_living_food_index_yoy_pct,-1,0.1522778294396732,3.4347830747955,0.3798452854973485,-0.3798452854973485,-0.0578420155984292
서울특별시,2019Q1,2019Q2,train,regional_living_food_index_yoy_pct,-1,0.1522778294396732,1.1692831831421335,-0.9718406990567493,0.9718406990567493,0.14798979221349642
서울특별시,2019Q2,2019Q3,train,regional_living_food_index_yoy_pct,-1,0.1522778294396732,1.5581214049430026,-0.7398445834958707,0.7398445834958707,0.11266192729745024
서울특별시,2019Q3,2019Q4,train,regional_living_food_index_yoy_pct,-1,0.1522778294396732,-0.4319210201563117,-1.9271818526721174,1.9271818526721174,0.2934670694604381
서울특별시,2019Q4,2020Q1,train,regional_living_food_index_yoy_pct,-1,0.1522778294396732,1.4696584961392922,-0.7926250203537145,0.7926250203537145,0.12069921765904043
서울특별시,2020Q1,2020Q2,train,regional_living_food_index_yoy_pct,-1,0.1522778294396732,1.8573373660524028,-0.5613206195457798,0.5613206195457798,0.08547668556416395
서울특별시,2020Q2,2020Q3,train,regional_living_food_index_yoy_pct,-1,0.1522778294396732,2.7582701424259115,-0.023788831821550085,0.023788831821550085,0.003622511674691074
서울특별시,2020Q3,2020Q4,train,regional_living_food_index_yoy_pct,-1,0.1522778294396732,4.906011154720091,1.2576375921944782,-1.2576375921944782,-0.19151032276111202
서울특별시,2020Q4,2021Q1,train,regional_living_food_index_yoy_pct,-1,0.1522778294396732,3.5412602269593307,0.44337372563779287,-0.44337372563779287,-0.06751598857070427
서울특별시,2021Q1,2021Q2,train,regional_living_food_index_yoy_pct,-1,0.1522778294396732,5.071428571428571,1.3563321031012163,-1.3563321031012163,-0.20653930865960024
서울특별시,2021Q2,2021Q3,train,regional_living_food_index_yoy_pct,-1,0.1522778294396732,4.774883908742189,1.1794019404363332,-1.1794019404363332,-0.17959676752658355
서울특별시,2021Q3,2021Q4,train,regional_living_food_index_yoy_pct,-1,0.1522778294396732,3.3966722457418497,0.3571068719218964,-0.3571068719218964,-0.05437945933425776
서울특별시,2021Q4,2022Q1,train,regional_living_food_index_yoy_pct,-1,0.1522778294396732,4.626615369438691,1.0909391215833228,-1.0909391215833228,-0.16612584148553214
세종특별자치시,2017Q1,2017Q2,train,regional_living_food_index_yoy_pct,-1,0.1522778294396732,,,,
세종특별자치시,2017Q2,2017Q3,train,regional_living_food_index_yoy_pct,-1,0.1522778294396732,,,,
세종특별자치시,2017Q3,2017Q4,train,regional_living_food_index_yoy_pct,-1,0.1522778294396732,,,,
세종특별자치시,2017Q4,2018Q1,train,regional_living_food_index_yoy_pct,-1,0.1522778294396732,,,,
세종특별자치시,2018Q1,2018Q2,train,regional_living_food_index_yoy_pct,-1,0.1522778294396732,,,,
세종특별자치시,2018Q2,2018Q3,train,regional_living_food_index_yoy_pct,-1,0.1522778294396732,,,,
세종특별자치시,2018Q3,2018Q4,train,regional_living_food_index_yoy_pct,-1,0.1522778294396732,,,,
세종특별자치시,2018Q4,2019Q1,train,regional_living_food_index_yoy_pct,-1,0.1522778294396732,,,,
세종특별자치시,2019Q1,2019Q2,train,regional_living_food_index_yoy_pct,-1,0.1522778294396732,,,,
세종특별자치시,2019Q2,2019Q3,train,regional_living_food_index_yoy_pct,-1,0.1522778294396732,,,,
세종특별자치시,2019Q3,2019Q4,train,regional_living_food_index_yoy_pct,-1,0.1522778294396732,,,,
세종특별자치시,2019Q4,2020Q1,train,regional_living_food_index_yoy_pct,-1,0.1522778294396732,,,,
세종특별자치시,2020Q1,2020Q2,train,regional_living_food_index_yoy_pct,-1,0.1522778294396732,,,,
세종특별자치시,2020Q2,2020Q3,train,regional_living_food_index_yoy_pct,-1,0.1522778294396732,,,,
세종특별자치시,2020Q3,2020Q4,train,regional_living_food_index_yoy_pct,-1,0.1522778294396732,,,,
세종특별자치시,2020Q4,2021Q1,train,regional_living_food_index_yoy_pct,-1,0.1522778294396732,,,,
세종특별자치시,2021Q1,2021Q2,train,regional_living_food_index_yoy_pct,-1,0.1522778294396732,3.569979716024352,0.46050889787759947,-0.46050889787759947,-0.07012529540645697
세종특별자치시,2021Q2,2021Q3,train,regional_living_food_index_yoy_pct,-1,0.1522778294396732,3.4392598551890696,0.3825163080545372,-0.3825163080545372,-0.058248753115822303
세종특별자치시,2021Q3,2021Q4,train,regional_living_food_index_yoy_pct,-1,0.1522778294396732,2.1324908678053145,-0.3971532614758736,0.3971532614758736,0.06047763661243301
세종특별자치시,2021Q4,2022Q1,train,regional_living_food_index_yoy_pct,-1,0.1522778294396732,4.032979040429119,0.7367524324553953,-0.7367524324553953,-0.11219106124870704
울산광역시,2017Q1,2017Q2,train,regional_living_food_index_yoy_pct,-1,0.1522778294396732,4.447987505287476,0.9843627402232598,-0.9843627402232598,-0.1498966214624869
울산광역시,2017Q2,2017Q3,train,regional_living_food_index_yoy_pct,-1,0.1522778294396732,4.855110412848029,1.227268215596689,-1.227268215596689,-0.18688574001136468
울산광역시,2017Q3,2017Q4,train,regional_living_food_index_yoy_pct,-1,0.1522778294396732,4.336113168260503,0.9176141281629516,-0.9176141281629516,-0.13973228769983237
울산광역시,2017Q4,2018Q1,train,regional_living_food_index_yoy_pct,-1,0.1522778294396732,0.6589907424980446,-1.2763011594539175,1.2763011594539175,0.1943523702729808
울산광역시,2018Q1,2018Q2,train,regional_living_food_index_yoy_pct,-1,0.1522778294396732,1.0311526479750863,-1.0542547874935375,1.0542547874935375,0.1605396307158998
울산광역시,2018Q2,2018Q3,train,regional_living_food_index_yoy_pct,-1,0.1522778294396732,1.0935841674817317,-1.017005697249723,1.017005697249723,0.15486742010496923
울산광역시,2018Q3,2018Q4,train,regional_living_food_index_yoy_pct,-1,0.1522778294396732,1.5214327596671184,-0.7617344665165657,0.7617344665165657,0.11599527117053005
울산광역시,2018Q4,2019Q1,train,regional_living_food_index_yoy_pct,-1,0.1522778294396732,2.060397833806449,-0.4401667897480518,0.4401667897480518,0.06702764333426232
울산광역시,2019Q1,2019Q2,train,regional_living_food_index_yoy_pct,-1,0.1522778294396732,-0.1151161954097479,-1.7381636836460614,1.7381636836460614,0.26468379295648903
울산광역시,2019Q2,2019Q3,train,regional_living_food_index_yoy_pct,-1,0.1522778294396732,-0.3983243616002996,-1.9071367700546695,1.9071367700546695,0.29041464778851417
울산광역시,2019Q3,2019Q4,train,regional_living_food_index_yoy_pct,-1,0.1522778294396732,-1.6303576856824376,-2.6422161151479355,2.6422161151479355,0.4023509349252532
울산광역시,2019Q4,2020Q1,train,regional_living_food_index_yoy_pct,-1,0.1522778294396732,0.3622965289324042,-1.4533205500319053,1.4533205500319053,0.2213084988389305
울산광역시,2020Q1,2020Q2,train,regional_living_food_index_yoy_pct,-1,0.1522778294396732,1.5424825840442136,-0.7491753166827162,0.7491753166827162,0.11408279109422381
울산광역시,2020Q2,2020Q3,train,regional_living_food_index_yoy_pct,-1,0.1522778294396732,2.159760256277776,-0.38088327605614936,0.38088327605614936,0.05800007854770227
울산광역시,2020Q3,2020Q4,train,regional_living_food_index_yoy_pct,-1,0.1522778294396732,3.933828452529342,0.6775953075673342,-0.6775953075673342,-0.10318274267486141
울산광역시,2020Q4,2021Q1,train,regional_living_food_index_yoy_pct,-1,0.1522778294396732,3.8583860840397888,0.6325834351304418,-0.6325834351304418,-0.09632843244115599
울산광역시,2021Q1,2021Q2,train,regional_living_food_index_yoy_pct,-1,0.1522778294396732,4.864207539521681,1.2326959177430414,-1.2326959177430414,-0.18771225871305627
울산광역시,2021Q2,2021Q3,train,regional_living_food_index_yoy_pct,-1,0.1522778294396732,5.158810439004657,1.4084675484137115,-1.4084675484137115,-0.2144783811086578
울산광역시,2021Q3,2021Q4,train,regional_living_food_index_yoy_pct,-1,0.1522778294396732,4.677898909811695,1.1215368907626073,-1.1215368907626073,-0.1707852033618497
울산광역시,2021Q4,2022Q1,train,regional_living_food_index_yoy_pct,-1,0.1522778294396732,4.883812524615983,1.2443930198603232,-1.2443930198603232,-0.18949346803421016
인천광역시,2017Q1,2017Q2,train,regional_living_food_index_yoy_pct,-1,0.1522778294396732,3.857441415803287,0.6320198090539024,-0.6320198090539024,-0.09624260468560497
인천광역시,2017Q2,2017Q3,train,regional_living_food_index_yoy_pct,-1,0.1522778294396732,3.7156614123088127,0.5474283048478921,-0.5474283048478921,-0.08336119403607672
인천광역시,2017Q3,2017Q4,train,regional_living_food_index_yoy_pct,-1,0.1522778294396732,4.365263506794825,0.9350063620743355,-0.9350063620743355,-0.14238073932896497
인천광역시,2017Q4,2018Q1,train,regional_living_food_index_yoy_pct,-1,0.1522778294396732,1.6249508583409789,-0.6999715136068534,0.6999715136068534,0.10659014276165431
인천광역시,2018Q1,2018Q2,train,regional_living_food_index_yoy_pct,-1,0.1522778294396732,1.5338342645516256,-0.7543352428831742,0.7543352428831742,0.11486853345609846
인천광역시,2018Q2,2018Q3,train,regional_living_food_index_yoy_pct,-1,0.1522778294396732,2.035782375941153,-0.45485333620187657,0.45485333620187657,0.06926407875021569
인천광역시,2018Q3,2018Q4,train,regional_living_food_index_yoy_pct,-1,0.1522778294396732,2.7206995479615914,-0.04620492027773855,0.04620492027773855,0.007035984969327168
인천광역시,2018Q4,2019Q1,train,regional_living_food_index_yoy_pct,-1,0.1522778294396732,4.013539651837528,0.725154131698745,-0.725154131698745,-0.1104248971842958
인천광역시,2019Q1,2019Q2,train,regional_living_food_index_yoy_pct,-1,0.1522778294396732,1.4284358890563895,-0.8172200426028993,0.8172200426028993,0.12444449426216675
인천광역시,2019Q2,2019Q3,train,regional_living_food_index_yoy_pct,-1,0.1522778294396732,1.6299126983289058,-0.6970110854938394,0.6970110854938394,0.10613933519439234
인천광역시,2019Q3,2019Q4,train,regional_living_food_index_yoy_pct,-1,0.1522778294396732,-0.0793560820768757,-1.716827799157083,1.716827799157083,0.26143481077733177
인천광역시,2019Q4,2020Q1,train,regional_living_food_index_yoy_pct,-1,0.1522778294396732,0.8719458649723677,-1.1492437910346802,1.1492437910346802,0.17500434999578246
인천광역시,2020Q1,2020Q2,train,regional_living_food_index_yoy_pct,-1,0.1522778294396732,2.084935664248455,-0.42552655885595536,0.42552655885595536,0.06479826075151822
인천광역시,2020Q2,2020Q3,train,regional_living_food_index_yoy_pct,-1,0.1522778294396732,2.749472853240276,-0.029037639176651954,0.029037639176651954,0.0044217886658729786
인천광역시,2020Q3,2020Q4,train,regional_living_food_index_yoy_pct,-1,0.1522778294396732,4.668193163768386,1.1157460624581275,-1.1157460624581275,-0.16990338859698567
인천광역시,2020Q4,2021Q1,train,regional_living_food_index_yoy_pct,-1,0.1522778294396732,3.831460789233821,0.6165187494717489,-0.6165187494717489,-0.09388213697841959
인천광역시,2021Q1,2021Q2,train,regional_living_food_index_yoy_pct,-1,0.1522778294396732,4.948075748320102,1.2827349765839358,-1.2827349765839358,-0.19533209798055176
인천광역시,2021Q2,2021Q3,train,regional_living_food_index_yoy_pct,-1,0.1522778294396732,4.913061059441981,1.2618438415260842,-1.2618438415260842,-0.19215084127941107
인천광역시,2021Q3,2021Q4,train,regional_living_food_index_yoy_pct,-1,0.1522778294396732,3.833267638943627,0.6175967867905494,-0.6175967867905494,-0.09404629816138149
인천광역시,2021Q4,2022Q1,train,regional_living_food_index_yoy_pct,-1,0.1522778294396732,5.139080686525954,1.396696005187231,-1.396696005187231,-0.21268583605697408
전라남도,2017Q1,2017Q2,train,regional_living_food_index_yoy_pct,-1,0.1522778294396732,3.333517729711777,0.31942641362937935,-0.31942641362937935,-0.04864156093318113
전라남도,2017Q2,2017Q3,train,regional_living_food_index_yoy_pct,-1,0.1522778294396732,3.1909326742153743,0.23435458386173338,-0.23435458386173338,-0.03568700734970262
전라남도,2017Q3,2017Q4,train,regional_living_food_index_yoy_pct,-1,0.1522778294396732,3.826907391486456,0.6138020139998608,-0.6138020139998608,-0.09346843839759869
전라남도,2017Q4,2018Q1,train,regional_living_food_index_yoy_pct,-1,0.1522778294396732,1.4807913629637737,-0.7859827158848423,0.7859827158848423,0.11968774195204313
전라남도,2018Q1,2018Q2,train,regional_living_food_index_yoy_pct,-1,0.1522778294396732,0.6167155613610698,-1.3015241886175304,1.3015241886175304,0.19819327840590933
전라남도,2018Q2,2018Q3,train,regional_living_food_index_yoy_pct,-1,0.1522778294396732,1.6917881380619892,-0.6600937742269238,0.6600937742269238,0.10051764716591766
전라남도,2018Q3,2018Q4,train,regional_living_food_index_yoy_pct,-1,0.1522778294396732,2.75377396547698,-0.02647142712351264,0.02647142712351264,0.004031011464538997
전라남도,2018Q4,2019Q1,train,regional_living_food_index_yoy_pct,-1,0.1522778294396732,3.449765623312384,0.3887844608721901,-0.3887844608721901,-0.05920325382149066
전라남도,2019Q1,2019Q2,train,regional_living_food_index_yoy_pct,-1,0.1522778294396732,1.75367654883265,-0.6231687239308594,0.6231687239308594,0.0948947806548822
전라남도,2019Q2,2019Q3,train,regional_living_food_index_yoy_pct,-1,0.1522778294396732,1.894940106736276,-0.5388853513957028,0.5388853513957028,0.08206029162737319
전라남도,2019Q3,2019Q4,train,regional_living_food_index_yoy_pct,-1,0.1522778294396732,-0.5041738986693134,-1.9702907504432137,1.9702907504432137,0.30003159884255737
전라남도,2019Q4,2020Q1,train,regional_living_food_index_yoy_pct,-1,0.1522778294396732,1.7884735852996323,-0.602407448827857,0.602407448827857,0.09173329874579707
전라남도,2020Q1,2020Q2,train,regional_living_food_index_yoy_pct,-1,0.1522778294396732,2.2254292945138143,-0.3417025553111043,0.3417025553111043,0.05203372343676483
전라남도,2020Q2,2020Q3,train,regional_living_food_index_yoy_pct,-1,0.1522778294396732,2.960317377677346,0.09676046377252592,-0.09676046377252592,-0.01473447339885638
전라남도,2020Q3,2020Q4,train,regional_living_food_index_yoy_pct,-1,0.1522778294396732,5.71731184582156,1.7416913665782812,-1.7416913665782812,-0.2652209808563588
전라남도,2020Q4,2021Q1,train,regional_living_food_index_yoy_pct,-1,0.1522778294396732,4.171581549444592,0.8194481189793623,-0.8194481189793623,-0.12478378089660036
전라남도,2021Q1,2021Q2,train,regional_living_food_index_yoy_pct,-1,0.1522778294396732,5.115089514066495,1.382381931862423,-1.382381931862423,-0.210506120040632
전라남도,2021Q2,2021Q3,train,regional_living_food_index_yoy_pct,-1,0.1522778294396732,4.722896440129443,1.1483841800933778,-1.1483841800933778,-0.17487345030747833
전라남도,2021Q3,2021Q4,train,regional_living_food_index_yoy_pct,-1,0.1522778294396732,2.87790983204006,0.047592893793906264,-0.047592893793906264,-0.007247342563688939
전라남도,2021Q4,2022Q1,train,regional_living_food_index_yoy_pct,-1,0.1522778294396732,4.568727845608511,1.0564011571675789,-1.0564011571675789,-0.16086647523103798
전북특별자치도,2017Q1,2017Q2,train,regional_living_food_index_yoy_pct,-1,0.1522778294396732,3.64186463469296,0.5033982563909901,-0.5033982563909901,-0.07665639382693606
전북특별자치도,2017Q2,2017Q3,train,regional_living_food_index_yoy_pct,-1,0.1522778294396732,2.8201877881606,0.013153661199310282,-0.013153661199310282,-0.002003010976615818
전북특별자치도,2017Q3,2017Q4,train,regional_living_food_index_yoy_pct,-1,0.1522778294396732,3.771515916794055,0.5807532902804966,-0.5807532902804966,-0.08843585048386247
전북특별자치도,2017Q4,2018Q1,train,regional_living_food_index_yoy_pct,-1,0.1522778294396732,1.7920275764539584,-0.6002869984803507,0.6002869984803507,0.09141040116944421
전북특별자치도,2018Q1,2018Q2,train,regional_living_food_index_yoy_pct,-1,0.1522778294396732,1.7039679965401788,-0.6528267935223667,0.6528267935223667,0.0994110471176477
전북특별자치도,2018Q2,2018Q3,train,regional_living_food_index_yoy_pct,-1,0.1522778294396732,2.4144364314782285,-0.2289334931907584,0.2289334931907584,0.03486149542913089
전북특별자치도,2018Q3,2018Q4,train,regional_living_food_index_yoy_pct,-1,0.1522778294396732,2.974799064971667,0.10540080572113805,-0.10540080572113805,-0.01605020591640759
전북특별자치도,2018Q4,2019Q1,train,regional_living_food_index_yoy_pct,-1,0.1522778294396732,4.226452775305534,0.8521864418655352,-0.8521864418655352,-0.12976910164520195
전북특별자치도,2019Q1,2019Q2,train,regional_living_food_index_yoy_pct,-1,0.1522778294396732,2.148491484702242,-0.3876066666234624,0.3876066666234624,0.05902390186976787
전북특별자치도,2019Q2,2019Q3,train,regional_living_food_index_yoy_pct,-1,0.1522778294396732,2.296793437733036,-0.29912391183179016,0.29912391183179016,0.045549940027249186
전북특별자치도,2019Q3,2019Q4,train,regional_living_food_index_yoy_pct,-1,0.1522778294396732,-0.175176731554616,-1.7739981523348132,1.7739981523348132,0.27014058806753605
전북특별자치도,2019Q4,2020Q1,train,regional_living_food_index_yoy_pct,-1,0.1522778294396732,0.9830466114050028,-1.082956733427763,1.082956733427763,0.16491030074345853
전북특별자치도,2020Q1,2020Q2,train,regional_living_food_index_yoy_pct,-1,0.1522778294396732,2.022125781843531,-0.4630013952269547,0.4630013952269547,0.07050484749270093
전북특별자치도,2020Q2,2020Q3,train,regional_living_food_index_yoy_pct,-1,0.1522778294396732,2.847145564742881,0.02923772675819985,-0.02923772675819985,-0.0044522575684889255
전북특별자치도,2020Q3,2020Q4,train,regional_living_food_index_yoy_pct,-1,0.1522778294396732,5.404703805617572,1.5551771636160918,-1.5551771636160918,-0.23681900286960594
전북특별자치도,2020Q4,2021Q1,train,regional_living_food_index_yoy_pct,-1,0.1522778294396732,4.875634203687662,1.2395135132151345,-1.2395135132151345,-0.18875042735354436
전북특별자치도,2021Q1,2021Q2,train,regional_living_food_index_yoy_pct,-1,0.1522778294396732,5.110680403957968,1.3797512840482211,-1.3797512840482211,-0.2101055307014651
전북특별자치도,2021Q2,2021Q3,train,regional_living_food_index_yoy_pct,-1,0.1522778294396732,5.062778452814909,1.351171103474646,-1.351171103474646,-0.20575340283872717
전북특별자치도,2021Q3,2021Q4,train,regional_living_food_index_yoy_pct,-1,0.1522778294396732,3.930647226874195,0.6756972637194362,-0.6756972637194362,-0.10289371267752218
전북특별자치도,2021Q4,2022Q1,train,regional_living_food_index_yoy_pct,-1,0.1522778294396732,4.119960668633227,0.7886490792795028,-0.7886490792795028,-0.12009376998227943
제주특별자치도,2017Q1,2017Q2,train,regional_living_food_index_yoy_pct,-1,0.1522778294396732,3.902557533459961,0.6589378522366431,-0.6589378522366431,-0.10034162587423612
제주특별자치도,2017Q2,2017Q3,train,regional_living_food_index_yoy_pct,-1,0.1522778294396732,3.484439925736016,0.4094725080369191,-0.4094725080369191,-0.062353584739081175
제주특별자치도,2017Q3,2017Q4,train,regional_living_food_index_yoy_pct,-1,0.1522778294396732,3.898347439672301,0.6564259453557804,-0.6564259453557804,-0.09995911814666375
제주특별자치도,2017Q4,2018Q1,train,regional_living_food_index_yoy_pct,-1,0.1522778294396732,0.7581362929601765,-1.217147040098493,1.217147040098493,0.18534450937512137
제주특별자치도,2018Q1,2018Q2,train,regional_living_food_index_yoy_pct,-1,0.1522778294396732,1.7621426293973783,-0.6181175286138305,0.6181175286138305,0.0941255955959292
제주특별자치도,2018Q2,2018Q3,train,regional_living_food_index_yoy_pct,-1,0.1522778294396732,2.341922875663438,-0.27219792125193193,0.27219792125193193,0.04144970862623529
제주특별자치도,2018Q3,2018Q4,train,regional_living_food_index_yoy_pct,-1,0.1522778294396732,1.7432315141121313,-0.6294006408212207,0.6294006408212207,0.09584376343219486
제주특별자치도,2018Q4,2019Q1,train,regional_living_food_index_yoy_pct,-1,0.1522778294396732,2.521231987399153,-0.1652150808956128,0.1652150808956128,0.025158593909483933
제주특별자치도,2019Q1,2019Q2,train,regional_living_food_index_yoy_pct,-1,0.1522778294396732,0.766595646906465,-1.2120998581455353,1.2120998581455353,0.1845759354625379
제주특별자치도,2019Q2,2019Q3,train,regional_living_food_index_yoy_pct,-1,0.1522778294396732,1.2970344554124713,-0.8956192854636776,0.8956192854636776,0.13638296079471987
제주특별자치도,2019Q3,2019Q4,train,regional_living_food_index_yoy_pct,-1,0.1522778294396732,0.4142084815096591,-1.4223478455140062,1.4223478455140062,0.21659204262306847
제주특별자치도,2019Q4,2020Q1,train,regional_living_food_index_yoy_pct,-1,0.1522778294396732,1.841567096780894,-0.5707297799811776,0.5707297799811776,0.08690949209211596
제주특별자치도,2020Q1,2020Q2,train,regional_living_food_index_yoy_pct,-1,0.1522778294396732,1.739184511100511,-0.6318152413561441,0.6318152413561441,0.09621145356061686
제주특별자치도,2020Q2,2020Q3,train,regional_living_food_index_yoy_pct,-1,0.1522778294396732,1.5379544073261364,-0.751877004300517,0.751877004300517,0.11449419822048655
제주특별자치도,2020Q3,2020Q4,train,regional_living_food_index_yoy_pct,-1,0.1522778294396732,3.6879330992763295,0.5308845070576466,-0.5308845070576466,-0.08084194041788928
제주특별자치도,2020Q4,2021Q1,train,regional_living_food_index_yoy_pct,-1,0.1522778294396732,3.949849650884252,0.6871541821238405,-0.6871541821238405,-0.10463834734421232
제주특별자치도,2021Q1,2021Q2,train,regional_living_food_index_yoy_pct,-1,0.1522778294396732,4.462102689486569,0.9927844120677854,-0.9927844120677854,-0.15117905537122445
제주특별자치도,2021Q2,2021Q3,train,regional_living_food_index_yoy_pct,-1,0.1522778294396732,5.691386831693235,1.7262234875570865,-1.7262234875570865,-0.2628655658129758
제주특별자치도,2021Q3,2021Q4,train,regional_living_food_index_yoy_pct,-1,0.1522778294396732,4.383020730503451,0.9456010173643095,-0.9456010173643095,-0.14399407044018375
제주특별자치도,2021Q4,2022Q1,train,regional_living_food_index_yoy_pct,-1,0.1522778294396732,5.030398117277901,1.331851726818843,-1.331851726818843,-0.202811490095454
충청남도,2017Q1,2017Q2,train,regional_living_food_index_yoy_pct,-1,0.1522778294396732,3.690594332340957,0.5324723029557358,-0.5324723029557358,-0.08108372653084352
충청남도,2017Q2,2017Q3,train,regional_living_food_index_yoy_pct,-1,0.1522778294396732,3.618792481236288,0.48963250580509854,-0.48963250580509854,-0.07456017520710859
충청남도,2017Q3,2017Q4,train,regional_living_food_index_yoy_pct,-1,0.1522778294396732,4.679071392692569,1.12223643998044,-1.12223643998044,-0.17089172919832749
충청남도,2017Q4,2018Q1,train,regional_living_food_index_yoy_pct,-1,0.1522778294396732,2.014590286913309,-0.4674973666994698,0.4674973666994698,0.07118948426975821
충청남도,2018Q1,2018Q2,train,regional_living_food_index_yoy_pct,-1,0.1522778294396732,1.2410008826312824,-0.9290511100565052,0.9290511100565052,0.14147388647792355
충청남도,2018Q2,2018Q3,train,regional_living_food_index_yoy_pct,-1,0.1522778294396732,1.707210238988055,-0.6508923446656413,0.6508923446656413,0.09911647344458349
충청남도,2018Q3,2018Q4,train,regional_living_food_index_yoy_pct,-1,0.1522778294396732,1.8422123238371448,-0.5703448122431509,0.5703448122431509,0.08685087004056496
충청남도,2018Q4,2019Q1,train,regional_living_food_index_yoy_pct,-1,0.1522778294396732,3.645877738937675,0.5057926315936202,-0.5057926315936202,-0.07702100408565675
충청남도,2019Q1,2019Q2,train,regional_living_food_index_yoy_pct,-1,0.1522778294396732,1.758329481954557,-0.6203926017552988,0.6203926017552988,0.09447203879572848
충청남도,2019Q2,2019Q3,train,regional_living_food_index_yoy_pct,-1,0.1522778294396732,1.431707650129721,-0.815267981777858,0.815267981777858,0.12414723867679525
충청남도,2019Q3,2019Q4,train,regional_living_food_index_yoy_pct,-1,0.1522778294396732,-0.6657857808643031,-2.066714730380353,2.066714730380353,0.3147148332133195
충청남도,2019Q4,2020Q1,train,regional_living_food_index_yoy_pct,-1,0.1522778294396732,-0.137784952649278,-1.7516887522460738,1.7516887522460738,0.26674336104592156
충청남도,2020Q1,2020Q2,train,regional_living_food_index_yoy_pct,-1,0.1522778294396732,1.2200912487871474,-0.9415266167265358,0.9415266167265358,0.14337362955479596
충청남도,2020Q2,2020Q3,train,regional_living_food_index_yoy_pct,-1,0.1522778294396732,2.294851083219429,-0.3002827966248333,0.3002827966248333,0.04572641248810444
충청남도,2020Q3,2020Q4,train,regional_living_food_index_yoy_pct,-1,0.1522778294396732,4.6205879623423485,1.0873429343906664,-1.0873429343906664,-0.16557822190557567
충청남도,2020Q4,2021Q1,train,regional_living_food_index_yoy_pct,-1,0.1522778294396732,4.706597061337114,1.138659332190406,-1.138659332190406,-0.17339257157718282
충청남도,2021Q1,2021Q2,train,regional_living_food_index_yoy_pct,-1,0.1522778294396732,5.160106057515801,1.409240565172306,-1.409240565172306,-0.21459609442277705
충청남도,2021Q2,2021Q3,train,regional_living_food_index_yoy_pct,-1,0.1522778294396732,5.446446649119241,1.5800825792925688,-1.5800825792925688,-0.24061154551011268
충청남도,2021Q3,2021Q4,train,regional_living_food_index_yoy_pct,-1,0.1522778294396732,3.942440370589395,0.6827335152471442,-0.6827335152471442,-0.10396517778755314
충청남도,2021Q4,2022Q1,train,regional_living_food_index_yoy_pct,-1,0.1522778294396732,4.730061952994391,1.1526594057719914,-1.1526594057719914,-0.17552447239418237
충청북도,2017Q1,2017Q2,train,regional_living_food_index_yoy_pct,-1,0.1522778294396732,4.16121117431536,0.8132607469258943,-0.8132607469258943,-0.12384158131036256
충청북도,2017Q2,2017Q3,train,regional_living_food_index_yoy_pct,-1,0.1522778294396732,3.193191977836407,0.23570257290850116,-0.23570257290850116,-0.035892276195852876
충청북도,2017Q3,2017Q4,train,regional_living_food_index_yoy_pct,-1,0.1522778294396732,3.6118264497832175,0.4854762985513401,-0.4854762985513401,-0.07392727698780482
충청북도,2017Q4,2018Q1,train,regional_living_food_index_yoy_pct,-1,0.1522778294396732,1.9948018193632235,-0.4793039416376543,0.4793039416376543,0.0729873638744618
충청북도,2018Q1,2018Q2,train,regional_living_food_index_yoy_pct,-1,0.1522778294396732,0.8376554099018829,-1.1697028198316006,1.1697028198316006,0.17811980649342127
충청북도,2018Q2,2018Q3,train,regional_living_food_index_yoy_pct,-1,0.1522778294396732,2.281478629187528,-0.30826132655573657,0.30826132655573657,0.046941365708101854
충청북도,2018Q3,2018Q4,train,regional_living_food_index_yoy_pct,-1,0.1522778294396732,2.741335011273649,-0.03389299448756233,0.03389299448756233,0.0051611516337768
충청북도,2018Q4,2019Q1,train,regional_living_food_index_yoy_pct,-1,0.1522778294396732,3.588796160625174,0.4717355258460114,-0.4717355258460114,-0.07183486194541347
충청북도,2019Q1,2019Q2,train,regional_living_food_index_yoy_pct,-1,0.1522778294396732,1.937943893905425,-0.5132276073307211,0.5132276073307211,0.07815318605283912
충청북도,2019Q2,2019Q3,train,regional_living_food_index_yoy_pct,-1,0.1522778294396732,1.215163398692809,-0.9444667651375074,0.9444667651375074,0.1438213489730492
충청북도,2019Q3,2019Q4,train,regional_living_food_index_yoy_pct,-1,0.1522778294396732,-0.8308750727270775,-2.1652134691501077,2.1652134691501077,0.3297140073557232
충청북도,2019Q4,2020Q1,train,regional_living_food_index_yoy_pct,-1,0.1522778294396732,0.1732231811566009,-1.566129116116083,1.566129116116083,0.23848674242443102
충청북도,2020Q1,2020Q2,train,regional_living_food_index_yoy_pct,-1,0.1522778294396732,0.9022525485037792,-1.1311616363991182,1.1311616363991182,0.17225083873628655
충청북도,2020Q2,2020Q3,train,regional_living_food_index_yoy_pct,-1,0.1522778294396732,2.203808362693338,-0.3546024502183644,0.3546024502183644,0.053998091433242294
충청북도,2020Q3,2020Q4,train,regional_living_food_index_yoy_pct,-1,0.1522778294396732,4.420770933045137,0.9681242670354613,-0.9681242670354613,-0.14742386201203458
충청북도,2020Q4,2021Q1,train,regional_living_food_index_yoy_pct,-1,0.1522778294396732,3.784878902293043,0.5887261709137417,-0.5887261709137417,-0.08964994344107464
충청북도,2021Q1,2021Q2,train,regional_living_food_index_yoy_pct,-1,0.1522778294396732,4.878297178938795,1.2411023485699417,-1.2411023485699417,-0.1889923717527114
충청북도,2021Q2,2021Q3,train,regional_living_food_index_yoy_pct,-1,0.1522778294396732,4.882733522038008,1.243749244653218,-1.243749244653218,-0.18939543534302508
충청북도,2021Q3,2021Q4,train,regional_living_food_index_yoy_pct,-1,0.1522778294396732,3.390832922621989,0.3536229029976525,-0.3536229029976525,-0.05384892810863862
충청북도,2021Q4,2022Q1,train,regional_living_food_index_yoy_pct,-1,0.1522778294396732,4.446416247658469,0.9834252663690003,-0.9834252663690003,-0.1497538649788038
강원특별자치도,2017Q1,2017Q2,train,current_regional_living_price_risk_score,-1,0.1341371919612982,62.69574944071588,0.8458554468241679,-0.8458554468241679,-0.11346067444216307
강원특별자치도,2017Q2,2017Q3,train,current_regional_living_price_risk_score,-1,0.1341371919612982,59.3400447427293,0.7093061978190767,-0.7093061978190767,-0.09514434161619605
강원특별자치도,2017Q3,2017Q4,train,current_regional_living_price_risk_score,-1,0.1341371919612982,71.86800894854586,1.219090060771417,-1.219090060771417,-0.16352531749980626
강원특별자치도,2017Q4,2018Q1,train,current_regional_living_price_risk_score,-1,0.1341371919612982,16.778523489932887,-1.0225934437288275,1.0225934437288275,0.13716781305981873
강원특별자치도,2018Q1,2018Q2,train,current_regional_living_price_risk_score,-1,0.1341371919612982,10.626398210290828,-1.2729337335714943,1.2729337335714943,0.17074775657409155
강원특별자치도,2018Q2,2018Q3,train,current_regional_living_price_risk_score,-1,0.1341371919612982,17.337807606263983,-0.9998352355613124,0.9998352355613124,0.13411509092215756
강원특별자치도,2018Q3,2018Q4,train,current_regional_living_price_risk_score,-1,0.1341371919612982,36.52125279642058,-0.21922869541554188,0.21922869541554188,0.029406721600379514
강원특별자치도,2018Q4,2019Q1,train,current_regional_living_price_risk_score,-1,0.1341371919612982,65.7158836689038,0.9687497709287499,-0.9687497709287499,-0.12994537398553338
강원특별자치도,2019Q1,2019Q2,train,current_regional_living_price_risk_score,-1,0.1341371919612982,30.480984340044746,-0.4650173436247057,0.4650173436247057,0.06237612068712012
강원특별자치도,2019Q2,2019Q3,train,current_regional_living_price_risk_score,-1,0.1341371919612982,28.635346756152128,-0.5401194305775058,0.5401194305775058,0.07245010374140197
강원특별자치도,2019Q3,2019Q4,train,current_regional_living_price_risk_score,-1,0.1341371919612982,5.145413870246085,-1.495964173613143,1.495964173613143,0.20066443352317098
강원특별자치도,2019Q4,2020Q1,train,current_regional_living_price_risk_score,-1,0.1341371919612982,10.794183445190155,-1.2661062711212399,1.2661062711212399,0.16983193993279322
강원특별자치도,2020Q1,2020Q2,train,current_regional_living_price_risk_score,-1,0.1341371919612982,30.648769574944076,-0.4581898811744511,0.4581898811744511,0.061460304045821756
강원특별자치도,2020Q2,2020Q3,train,current_regional_living_price_risk_score,-1,0.1341371919612982,28.355704697986575,-0.5514985346612636,0.5514985346612636,0.07397646481023258
강원특별자치도,2020Q3,2020Q4,train,current_regional_living_price_risk_score,-1,0.1341371919612982,59.56375838926174,0.718409481086083,-0.718409481086083,-0.09636543047126055
강원특별자치도,2020Q4,2021Q1,train,current_regional_living_price_risk_score,-1,0.1341371919612982,48.54586129753915,0.27007278018603414,-0.27007278018603414,-0.036226804359335556
강원특별자치도,2021Q1,2021Q2,train,current_regional_living_price_risk_score,-1,0.1341371919612982,68.6241610738255,1.087092453399829,-1.087092453399829,-0.14581952910137147
강원특별자치도,2021Q2,2021Q3,train,current_regional_living_price_risk_score,-1,0.1341371919612982,84.00447427293064,1.7129431780064956,-1.7129431780064956,-0.2297693878870535
강원특별자치도,2021Q3,2021Q4,train,current_regional_living_price_risk_score,-1,0.1341371919612982,69.96644295302013,1.1417121530018655,-1.1417121530018655,-0.15314606223175828
강원특별자치도,2021Q4,2022Q1,train,current_regional_living_price_risk_score,-1,0.1341371919612982,83.38926174496645,1.6879091490222298,-1.6879091490222298,-0.2264113935356263
경기도,2017Q1,2017Q2,train,current_regional_living_price_risk_score,-1,0.1341371919612982,67.50559284116332,1.041576037064799,-1.041576037064799,-0.1397140848260492
경기도,2017Q2,2017Q3,train,current_regional_living_price_risk_score,-1,0.1341371919612982,57.66219239373603,0.6410315733165319,-0.6410315733165319,-0.08598617520321264
경기도,2017Q3,2017Q4,train,current_regional_living_price_risk_score,-1,0.1341371919612982,70.917225950783,1.1804011068866416,-1.1804011068866416,-0.1583356898657823
경기도,2017Q4,2018Q1,train,current_regional_living_price_risk_score,-1,0.1341371919612982,26.90156599552573,-0.6106698758968029,0.6106698758968029,0.0819135423681516
경기도,2018Q1,2018Q2,train,current_regional_living_price_risk_score,-1,0.1341371919612982,11.465324384787474,-1.2387964213202216,1.2387964213202216,0.1661686733675998
경기도,2018Q2,2018Q3,train,current_regional_living_price_risk_score,-1,0.1341371919612982,24.32885906040269,-0.7153576334673726,0.7153576334673726,0.09595606420139295
경기도,2018Q3,2018Q4,train,current_regional_living_price_risk_score,-1,0.1341371919612982,42.84116331096197,0.03793905687737943,-0.03793905687737943,-0.005089038555191655
경기도,2018Q4,2019Q1,train,current_regional_living_price_risk_score,-1,0.1341371919612982,58.83668903803133,0.6888238104683139,-0.6888238104683139,-0.0923968916923011
경기도,2019Q1,2019Q2,train,current_regional_living_price_risk_score,-1,0.1341371919612982,13.3668903803132,-1.16141851355067,1.16141851355067,0.15578941809955185
경기도,2019Q2,2019Q3,train,current_regional_living_price_risk_score,-1,0.1341371919612982,21.02908277404922,-0.8496310616557122,0.8496310616557122,0.11396712481359385
경기도,2019Q3,2019Q4,train,current_regional_living_price_risk_score,-1,0.1341371919612982,2.2930648769574944,-1.6120310352674705,1.6120310352674705,0.21623331642524296
경기도,2019Q4,2020Q1,train,current_regional_living_price_risk_score,-1,0.1341371919612982,7.32662192393736,-1.407207161759834,1.407207161759834,0.18875881718629248
경기도,2020Q1,2020Q2,train,current_regional_living_price_risk_score,-1,0.1341371919612982,20.134228187919465,-0.8860441947237364,0.8860441947237364,0.11885148023385171
경기도,2020Q2,2020Q3,train,current_regional_living_price_risk_score,-1,0.1341371919612982,25.055928411633108,-0.6857719628496031,0.6857719628496031,0.09198752542243346
경기도,2020Q3,2020Q4,train,current_regional_living_price_risk_score,-1,0.1341371919612982,55.480984340044735,0.5522745614632221,-0.5522745614632221,-0.074080558866334
경기도,2020Q4,2021Q1,train,current_regional_living_price_risk_score,-1,0.1341371919612982,52.06935123042505,0.41344949164137956,-0.41344949164137956,-0.05545895382660088
경기도,2021Q1,2021Q2,train,current_regional_living_price_risk_score,-1,0.1341371919612982,71.75615212527964,1.2145384191379138,-1.2145384191379138,-0.162914773072274
경기도,2021Q2,2021Q3,train,current_regional_living_price_risk_score,-1,0.1341371919612982,81.9910514541387,1.6310136286034413,-1.6310136286034413,-0.21877958819147333
경기도,2021Q3,2021Q4,train,current_regional_living_price_risk_score,-1,0.1341371919612982,69.01565995525728,1.1030231991170898,-1.1030231991170898,-0.1479564345977343
경기도,2021Q4,2022Q1,train,current_regional_living_price_risk_score,-1,0.1341371919612982,80.31319910514542,1.5627390041008962,-1.5627390041008962,-0.20962142177848989
경상남도,2017Q1,2017Q2,train,current_regional_living_price_risk_score,-1,0.1341371919612982,54.36241610738255,0.5067581451281921,-0.5067581451281921,-0.06797511459101171
경상남도,2017Q2,2017Q3,train,current_regional_living_price_risk_score,-1,0.1341371919612982,38.14317673378076,-0.15322989172974788,0.15322989172974788,0.02055382740116213
경상남도,2017Q3,2017Q4,train,current_regional_living_price_risk_score,-1,0.1341371919612982,49.94407158836689,0.3269683006048221,-0.3269683006048221,-0.043858609703488476
경상남도,2017Q4,2018Q1,train,current_regional_living_price_risk_score,-1,0.1341371919612982,13.870246085011187,-1.1409361261999063,1.1409361261999063,0.15304196817565677
경상남도,2018Q1,2018Q2,train,current_regional_living_price_risk_score,-1,0.1341371919612982,11.073825503355708,-1.2547271670374822,1.2547271670374822,0.1683055788639626
경상남도,2018Q2,2018Q3,train,current_regional_living_price_risk_score,-1,0.1341371919612982,30.480984340044746,-0.4650173436247057,0.4650173436247057,0.06237612068712012
경상남도,2018Q3,2018Q4,train,current_regional_living_price_risk_score,-1,0.1341371919612982,47.31543624161073,0.22000472221750067,-0.22000472221750067,-0.029510815656480973
경상남도,2018Q4,2019Q1,train,current_regional_living_price_risk_score,-1,0.1341371919612982,52.29306487695749,0.4225527749083856,-0.4225527749083856,-0.05668004268166535
경상남도,2019Q1,2019Q2,train,current_regional_living_price_risk_score,-1,0.1341371919612982,16.498881431767337,-1.0339725478125852,1.0339725478125852,0.13869417412864932
경상남도,2019Q2,2019Q3,train,current_regional_living_price_risk_score,-1,0.1341371919612982,19.96644295302013,-0.8928716571739912,0.8928716571739912,0.11976729687515009
경상남도,2019Q3,2019Q4,train,current_regional_living_price_risk_score,-1,0.1341371919612982,1.174496644295302,-1.6575474516025008,1.6575474516025008,0.2223387607005653
경상남도,2019Q4,2020Q1,train,current_regional_living_price_risk_score,-1,0.1341371919612982,5.033557046979866,-1.5005158152466462,1.5005158152466462,0.20127497795070323
경상남도,2020Q1,2020Q2,train,current_regional_living_price_risk_score,-1,0.1341371919612982,21.979865771812083,-0.8109421077709363,0.8109421077709363,0.10877749717956986
경상남도,2020Q2,2020Q3,train,current_regional_living_price_risk_score,-1,0.1341371919612982,29.138702460850112,-0.5196370432267422,0.5196370432267422,0.06970265381750693
경상남도,2020Q3,2020Q4,train,current_regional_living_price_risk_score,-1,0.1341371919612982,59.95525727069352,0.7343402268033442,-0.7343402268033442,-0.09850233596762344
경상남도,2020Q4,2021Q1,train,current_regional_living_price_risk_score,-1,0.1341371919612982,57.49440715883669,0.6342041108662769,-0.6342041108662769,-0.08507035856191424
경상남도,2021Q1,2021Q2,train,current_regional_living_price_risk_score,-1,0.1341371919612982,65.21252796420582,0.9482673835779865,-0.9482673835779865,-0.12719792406163835
경상남도,2021Q2,2021Q3,train,current_regional_living_price_risk_score,-1,0.1341371919612982,78.85906040268456,1.5035676628653565,-1.5035676628653565,-0.2016843442205708
경상남도,2021Q3,2021Q4,train,current_regional_living_price_risk_score,-1,0.1341371919612982,60.01118568232662,0.7366160476200951,-0.7366160476200951,-0.09880760818138948
경상남도,2021Q4,2022Q1,train,current_regional_living_price_risk_score,-1,0.1341371919612982,62.19239373601789,0.8253730594734042,-0.8253730594734042,-0.11071322451826801
경상북도,2017Q1,2017Q2,train,current_regional_living_price_risk_score,-1,0.1341371919612982,63.03131991051455,0.8595103717246775,-0.8595103717246775,-0.11529230772475983
경상북도,2017Q2,2017Q3,train,current_regional_living_price_risk_score,-1,0.1341371919612982,50.39149888143177,0.34517486713883455,-0.34517486713883455,-0.04630078741361745
경상북도,2017Q3,2017Q4,train,current_regional_living_price_risk_score,-1,0.1341371919612982,59.11633109619686,0.7002029145520706,-0.7002029145520706,-0.09392325276113157
경상북도,2017Q4,2018Q1,train,current_regional_living_price_risk_score,-1,0.1341371919612982,16.55480984340045,-1.0316967269958335,1.0316967269958335,0.13838890191488318
경상북도,2018Q1,2018Q2,train,current_regional_living_price_risk_score,-1,0.1341371919612982,16.16331096196868,-1.0476274727130943,1.0476274727130943,0.140525807411246
경상북도,2018Q2,2018Q3,train,current_regional_living_price_risk_score,-1,0.1341371919612982,31.82326621923937,-0.41039764402266965,0.41039764402266965,0.055049587556733365
경상북도,2018Q3,2018Q4,train,current_regional_living_price_risk_score,-1,0.1341371919612982,53.24384787472036,0.4612417287931617,-0.4612417287931617,-0.06186967031568937
경상북도,2018Q4,2019Q1,train,current_regional_living_price_risk_score,-1,0.1341371919612982,60.178970917225946,0.7434435100703497,-0.7434435100703497,-0.09972342482268783
경상북도,2019Q1,2019Q2,train,current_regional_living_price_risk_score,-1,0.1341371919612982,10.34675615212528,-1.284312837655252,1.284312837655252,0.17227411764292214
경상북도,2019Q2,2019Q3,train,current_regional_living_price_risk_score,-1,0.1341371919612982,18.008948545861298,-0.9725253857602941,0.9725253857602941,0.13045182435696415
경상북도,2019Q3,2019Q4,train,current_regional_living_price_risk_score,-1,0.1341371919612982,1.0,-1.6646480125507657,1.6646480125507657,0.2232912100075156
경상북도,2019Q4,2020Q1,train,current_regional_living_price_risk_score,-1,0.1341371919612982,4.642058165548098,-1.5164465609639066,1.5164465609639066,0.20341188344706604
경상북도,2020Q1,2020Q2,train,current_regional_living_price_risk_score,-1,0.1341371919612982,12.02460850111857,-1.2160382131527063,1.2160382131527063,0.16311595122993863
경상북도,2020Q2,2020Q3,train,current_regional_living_price_risk_score,-1,0.1341371919612982,18.95973154362416,-0.9338364318755185,0.9338364318755185,0.12526219672294017
경상북도,2020Q3,2020Q4,train,current_regional_living_price_risk_score,-1,0.1341371919612982,50.27964205816554,0.3406232255053311,-0.3406232255053311,-0.04569024298608516
경상북도,2020Q4,2021Q1,train,current_regional_living_price_risk_score,-1,0.1341371919612982,46.14093959731543,0.17221248506571876,-0.17221248506571876,-0.023100099167392515
경상북도,2021Q1,2021Q2,train,current_regional_living_price_risk_score,-1,0.1341371919612982,66.66666666666667,1.0074387248135261,-1.0074387248135261,-0.13513500161955744
경상북도,2021Q2,2021Q3,train,current_regional_living_price_risk_score,-1,0.1341371919612982,77.40492170022371,1.444396321629817,-1.444396321629817,-0.19374726666265177
경상북도,2021Q3,2021Q4,train,current_regional_living_price_risk_score,-1,0.1341371919612982,68.45637583892618,1.0802649909495745,-1.0802649909495745,-0.14490371246007314
경상북도,2021Q4,2022Q1,train,current_regional_living_price_risk_score,-1,0.1341371919612982,76.84563758389262,1.4216381134623024,-1.4216381134623024,-0.19069454452499068
광주광역시,2017Q1,2017Q2,train,current_regional_living_price_risk_score,-1,0.1341371919612982,82.55033557046978,1.6537718367709562,-1.6537718367709562,-0.22183231032913445
광주광역시,2017Q2,2017Q3,train,current_regional_living_price_risk_score,-1,0.1341371919612982,66.2751677852349,0.9915079790962652,-0.9915079790962652,-0.13299809612319458
광주광역시,2017Q3,2017Q4,train,current_regional_living_price_risk_score,-1,0.1341371919612982,62.360178970917225,0.832200521923659,-0.832200521923659,-0.1116290411595664
광주광역시,2017Q4,2018Q1,train,current_regional_living_price_risk_score,-1,0.1341371919612982,15.883668903803132,-1.0590065767968517,1.0590065767968517,0.14205216848007657
광주광역시,2018Q1,2018Q2,train,current_regional_living_price_risk_score,-1,0.1341371919612982,7.662192393736018,-1.3935522368593247,1.3935522368593247,0.18692718390369573
광주광역시,2018Q2,2018Q3,train,current_regional_living_price_risk_score,-1,0.1341371919612982,15.492170022371369,-1.0749373225141123,1.0749373225141123,0.1441890739764394
광주광역시,2018Q3,2018Q4,train,current_regional_living_price_risk_score,-1,0.1341371919612982,28.020134228187924,-0.5651534595617724,0.5651534595617724,0.07580809809282925
광주광역시,2018Q4,2019Q1,train,current_regional_living_price_risk_score,-1,0.1341371919612982,34.116331096196866,-0.31708899053585726,0.31708899053585726,0.042533426792322554
광주광역시,2019Q1,2019Q2,train,current_regional_living_price_risk_score,-1,0.1341371919612982,7.941834451901567,-1.382173132775567,1.382173132775567,0.18540082283486514
광주광역시,2019Q2,2019Q3,train,current_regional_living_price_risk_score,-1,0.1341371919612982,9.843400447427292,-1.3047952250060157,1.3047952250060157,0.1750215675668172
광주광역시,2019Q3,2019Q4,train,current_regional_living_price_risk_score,-1,0.1341371919612982,1.0626398210290828,-1.662099093236004,1.662099093236004,0.22294930512809755
광주광역시,2019Q4,2020Q1,train,current_regional_living_price_risk_score,-1,0.1341371919612982,9.619686800894854,-1.3138985082730217,1.3138985082730217,0.17624265642188167
광주광역시,2020Q1,2020Q2,train,current_regional_living_price_risk_score,-1,0.1341371919612982,20.46979865771812,-0.8723892698232275,0.8723892698232275,0.11701984695125503
광주광역시,2020Q2,2020Q3,train,current_regional_living_price_risk_score,-1,0.1341371919612982,25.11185682326622,-0.6834961420328515,0.6834961420328515,0.09168225320866734
광주광역시,2020Q3,2020Q4,train,current_regional_living_price_risk_score,-1,0.1341371919612982,56.04026845637584,0.5750327696307377,-0.5750327696307377,-0.07713328100399522
광주광역시,2020Q4,2021Q1,train,current_regional_living_price_risk_score,-1,0.1341371919612982,49.66442953020135,0.31558919652106504,-0.31558919652106504,-0.04233224863465796
광주광역시,2021Q1,2021Q2,train,current_regional_living_price_risk_score,-1,0.1341371919612982,71.19686800894856,1.1917802109703992,-1.1917802109703992,-0.1598620509346129
광주광역시,2021Q2,2021Q3,train,current_regional_living_price_risk_score,-1,0.1341371919612982,85.57046979865771,1.7766661608755385,-1.7766661608755385,-0.23831700987250481
광주광역시,2021Q3,2021Q4,train,current_regional_living_price_risk_score,-1,0.1341371919612982,73.37807606263982,1.280537222823708,-1.280537222823708,-0.1717676672714914
광주광역시,2021Q4,2022Q1,train,current_regional_living_price_risk_score,-1,0.1341371919612982,76.90156599552573,1.4239139342790537,-1.4239139342790537,-0.19099981673875677
대구광역시,2017Q1,2017Q2,train,current_regional_living_price_risk_score,-1,0.1341371919612982,70.52572706935125,1.1644703611693812,-1.1644703611693812,-0.15619878436941953
대구광역시,2017Q2,2017Q3,train,current_regional_living_price_risk_score,-1,0.1341371919612982,48.266219239373605,0.2586936761022768,-0.2586936761022768,-0.034700443290505
대구광역시,2017Q3,2017Q4,train,current_regional_living_price_risk_score,-1,0.1341371919612982,66.05145413870245,0.9824046958292588,-0.9824046958292588,-0.13177700726813005
대구광역시,2017Q4,2018Q1,train,current_regional_living_price_risk_score,-1,0.1341371919612982,24.217002237136462,-0.7199092751008759,0.7199092751008759,0.09656660862892522
대구광역시,2018Q1,2018Q2,train,current_regional_living_price_risk_score,-1,0.1341371919612982,21.364653243847872,-0.8359761367552032,0.8359761367552032,0.11213549153099717
대구광역시,2018Q2,2018Q3,train,current_regional_living_price_risk_score,-1,0.1341371919612982,43.6241610738255,0.06980054831190051,-0.06980054831190051,-0.009362849547917267
대구광역시,2018Q3,2018Q4,train,current_regional_living_price_risk_score,-1,0.1341371919612982,52.18120805369127,0.41800113327488275,-0.41800113327488275,-0.05606949825413314
대구광역시,2018Q4,2019Q1,train,current_regional_living_price_risk_score,-1,0.1341371919612982,65.43624161073825,0.9573706668449923,-0.9573706668449923,-0.1284190129167028
대구광역시,2019Q1,2019Q2,train,current_regional_living_price_risk_score,-1,0.1341371919612982,16.722595078299776,-1.024869264545579,1.024869264545579,0.13747308527358484
대구광역시,2019Q2,2019Q3,train,current_regional_living_price_risk_score,-1,0.1341371919612982,32.49440715883669,-0.3830877942216513,0.3830877942216513,0.05138632099153994
대구광역시,2019Q3,2019Q4,train,current_regional_living_price_risk_score,-1,0.1341371919612982,6.040268456375839,-1.4595510405451189,1.4595510405451189,0.19578007810291315
대구광역시,2019Q4,2020Q1,train,current_regional_living_price_risk_score,-1,0.1341371919612982,9.004474272930649,-1.3389325372572884,1.3389325372572884,0.17960065077330895
대구광역시,2020Q1,2020Q2,train,current_regional_living_price_risk_score,-1,0.1341371919612982,16.16331096196868,-1.0476274727130943,1.0476274727130943,0.140525807411246
대구광역시,2020Q2,2020Q3,train,current_regional_living_price_risk_score,-1,0.1341371919612982,7.270693512304251,-1.4094829825765856,1.4094829825765856,0.1890640894000586
대구광역시,2020Q3,2020Q4,train,current_regional_living_price_risk_score,-1,0.1341371919612982,52.46085011185682,0.4293802373586404,-0.4293802373586404,-0.05759585932296373
대구광역시,2020Q4,2021Q1,train,current_regional_living_price_risk_score,-1,0.1341371919612982,49.328859060402685,0.3019342716205555,-0.3019342716205555,-0.04050061535206121
대구광역시,2021Q1,2021Q2,train,current_regional_living_price_risk_score,-1,0.1341371919612982,71.14093959731544,1.1895043901536473,-1.1895043901536473,-0.15955677872084673
대구광역시,2021Q2,2021Q3,train,current_regional_living_price_risk_score,-1,0.1341371919612982,85.17897091722595,1.7607354151582781,-1.7607354151582781,-0.23618010437614204
대구광역시,2021Q3,2021Q4,train,current_regional_living_price_risk_score,-1,0.1341371919612982,63.47874720357942,0.8777169382586893,-0.8777169382586893,-0.11773448543488874
대구광역시,2021Q4,2022Q1,train,current_regional_living_price_risk_score,-1,0.1341371919612982,73.43400447427292,1.2828130436404592,-1.2828130436404592,-0.17207293948525748
대전광역시,2017Q1,2017Q2,train,current_regional_living_price_risk_score,-1,0.1341371919612982,60.12304250559284,0.7411676892535983,-0.7411676892535983,-0.09941815260892173
대전광역시,2017Q2,2017Q3,train,current_regional_living_price_risk_score,-1,0.1341371919612982,50.16778523489933,0.3360715838718282,-0.3360715838718282,-0.04507969855855294
대전광역시,2017Q3,2017Q4,train,current_regional_living_price_risk_score,-1,0.1341371919612982,63.31096196868009,0.8708894758084348,-0.8708894758084348,-0.11681866879359037
대전광역시,2017Q4,2018Q1,train,current_regional_living_price_risk_score,-1,0.1341371919612982,21.588366890380318,-0.8268728534881968,0.8268728534881968,0.11091440267593265
대전광역시,2018Q1,2018Q2,train,current_regional_living_price_risk_score,-1,0.1341371919612982,13.42281879194631,-1.1591426927339183,1.1591426927339183,0.15548414588578569
대전광역시,2018Q2,2018Q3,train,current_regional_living_price_risk_score,-1,0.1341371919612982,30.984340044742726,-0.4445349562739423,0.4445349562739423,0.059628670763225096
대전광역시,2018Q3,2018Q4,train,current_regional_living_price_risk_score,-1,0.1341371919612982,48.04250559284117,0.24959039283527074,-0.24959039283527074,-0.033479354435440534
대전광역시,2018Q4,2019Q1,train,current_regional_living_price_risk_score,-1,0.1341371919612982,66.49888143176734,1.0006112623632715,-1.0006112623632715,-0.13421918497825905
대전광역시,2019Q1,2019Q2,train,current_regional_living_price_risk_score,-1,0.1341371919612982,23.65771812080537,-0.7426674832683909,0.7426674832683909,0.09961933076658637
대전광역시,2019Q2,2019Q3,train,current_regional_living_price_risk_score,-1,0.1341371919612982,17.729306487695748,-0.9839044898440518,0.9839044898440518,0.13197818542579473
대전광역시,2019Q3,2019Q4,train,current_regional_living_price_risk_score,-1,0.1341371919612982,1.5100671140939597,-1.643892526701992,1.643892526701992,0.2205071274179686
대전광역시,2019Q4,2020Q1,train,current_regional_living_price_risk_score,-1,0.1341371919612982,5.648769574944072,-1.4754817862623797,1.4754817862623797,0.19791698359927598
대전광역시,2020Q1,2020Q2,train,current_regional_living_price_risk_score,-1,0.1341371919612982,11.85682326621924,-1.222865675602961,1.222865675602961,0.164031767871237
대전광역시,2020Q2,2020Q3,train,current_regional_living_price_risk_score,-1,0.1341371919612982,28.91498881431768,-0.528740326493748,0.528740326493748,0.07092374267257136
대전광역시,2020Q3,2020Q4,train,current_regional_living_price_risk_score,-1,0.1341371919612982,64.09395973154362,0.9027509672429559,-0.9027509672429559,-0.121092479786316
대전광역시,2020Q4,2021Q1,train,current_regional_living_price_risk_score,-1,0.1341371919612982,50.44742729306487,0.34745068795558554,-0.34745068795558554,-0.0466060596273835
대전광역시,2021Q1,2021Q2,train,current_regional_living_price_risk_score,-1,0.1341371919612982,68.34451901565996,1.0757133493160713,-1.0757133493160713,-0.14429316803254089
대전광역시,2021Q2,2021Q3,train,current_regional_living_price_risk_score,-1,0.1341371919612982,74.72035794183445,1.3351569224257442,-1.3351569224257442,-0.17909420040187818
대전광역시,2021Q3,2021Q4,train,current_regional_living_price_risk_score,-1,0.1341371919612982,63.47874720357942,0.8777169382586893,-0.8777169382586893,-0.11773448543488874
대전광역시,2021Q4,2022Q1,train,current_regional_living_price_risk_score,-1,0.1341371919612982,77.79642058165548,1.4603270673470778,-1.4603270673470778,-0.19588417215901463
부산광역시,2017Q1,2017Q2,train,current_regional_living_price_risk_score,-1,0.1341371919612982,51.39821029082774,0.38613964184036165,-0.38613964184036165,-0.05179568726140752
부산광역시,2017Q2,2017Q3,train,current_regional_living_price_risk_score,-1,0.1341371919612982,41.94630872483221,0.0015259238093548947,-0.0015259238093548947,-0.0002046831349337529
부산광역시,2017Q3,2017Q4,train,current_regional_living_price_risk_score,-1,0.1341371919612982,54.69798657718121,0.5204130700287013,-0.5204130700287013,-0.06980674787360842
부산광역시,2017Q4,2018Q1,train,current_regional_living_price_risk_score,-1,0.1341371919612982,18.5682326621924,-0.9497671775927787,0.9497671775927787,0.12739910221930295
부산광역시,2018Q1,2018Q2,train,current_regional_living_price_risk_score,-1,0.1341371919612982,20.80536912751678,-0.8587343449227183,0.8587343449227183,0.11518821366865832
부산광역시,2018Q2,2018Q3,train,current_regional_living_price_risk_score,-1,0.1341371919612982,35.23489932885906,-0.271572574200827,0.271572574200827,0.036427982517000225
부산광역시,2018Q3,2018Q4,train,current_regional_living_price_risk_score,-1,0.1341371919612982,51.51006711409397,0.3906912834738651,-0.3906912834738651,-0.05240623168893981
부산광역시,2018Q4,2019Q1,train,current_regional_living_price_risk_score,-1,0.1341371919612982,65.60402684563759,0.9641981292952473,-0.9641981292952473,-0.1293348295580012
부산광역시,2019Q1,2019Q2,train,current_regional_living_price_risk_score,-1,0.1341371919612982,21.14093959731544,-0.845079420022209,0.845079420022209,0.1133565803860616
부산광역시,2019Q2,2019Q3,train,current_regional_living_price_risk_score,-1,0.1341371919612982,18.120805369127517,-0.9679737441267912,0.9679737441267912,0.12984127992943192
부산광역시,2019Q3,2019Q4,train,current_regional_living_price_risk_score,-1,0.1341371919612982,4.47427293064877,-1.5232740234141615,1.5232740234141615,0.20432770008836443
부산광역시,2019Q4,2020Q1,train,current_regional_living_price_risk_score,-1,0.1341371919612982,3.859060402684563,-1.548308052398428,1.548308052398428,0.20768569443979168
부산광역시,2020Q1,2020Q2,train,current_regional_living_price_risk_score,-1,0.1341371919612982,7.885906040268456,-1.3844489535923188,1.3844489535923188,0.18570609504863128
부산광역시,2020Q2,2020Q3,train,current_regional_living_price_risk_score,-1,0.1341371919612982,11.129753914988816,-1.2524513462207307,1.2524513462207307,0.1680003066501965
부산광역시,2020Q3,2020Q4,train,current_regional_living_price_risk_score,-1,0.1341371919612982,42.28187919463088,0.01518084870986471,-0.01518084870986471,-0.0020363164175305486
부산광역시,2020Q4,2021Q1,train,current_regional_living_price_risk_score,-1,0.1341371919612982,41.77852348993289,-0.00530153864089929,0.00530153864089929,0.000711133506364548
부산광역시,2021Q1,2021Q2,train,current_regional_living_price_risk_score,-1,0.1341371919612982,68.23266219239373,1.0711617076825681,-1.0711617076825681,-0.14368262360500864
부산광역시,2021Q2,2021Q3,train,current_regional_living_price_risk_score,-1,0.1341371919612982,75.11185682326622,1.351087668143005,-1.351087668143005,-0.181231105898241
부산광역시,2021Q3,2021Q4,train,current_regional_living_price_risk_score,-1,0.1341371919612982,61.91275167785235,0.8139939553896469,-0.8139939553896469,-0.10918686344943747
부산광역시,2021Q4,2022Q1,train,current_regional_living_price_risk_score,-1,0.1341371919612982,68.00894854586129,1.0620584244155618,-1.0620584244155618,-0.1424615347499441
서울특별시,2017Q1,2017Q2,train,current_regional_living_price_risk_score,-1,0.1341371919612982,67.33780760626398,1.034748574614544,-1.034748574614544,-0.13879826818475077
서울특별시,2017Q2,2017Q3,train,current_regional_living_price_risk_score,-1,0.1341371919612982,69.51901565995526,1.1235055864678534,-1.1235055864678534,-0.15070388452162936
서울특별시,2017Q3,2017Q4,train,current_regional_living_price_risk_score,-1,0.1341371919612982,83.0536912751678,1.6742542241217206,-1.6742542241217206,-0.22457976025302961
서울특별시,2017Q4,2018Q1,train,current_regional_living_price_risk_score,-1,0.1341371919612982,20.69351230425056,-0.8632859865562212,0.8632859865562212,0.11579875809619054
서울특별시,2018Q1,2018Q2,train,current_regional_living_price_risk_score,-1,0.1341371919612982,18.400447427293063,-0.9565946400430336,0.9565946400430336,0.12831491886060134
서울특별시,2018Q2,2018Q3,train,current_regional_living_price_risk_score,-1,0.1341371919612982,18.288590604026847,-0.9611462816765365,0.9611462816765365,0.12892546328813356
서울특별시,2018Q3,2018Q4,train,current_regional_living_price_risk_score,-1,0.1341371919612982,28.97091722595078,-0.5264645056769969,0.5264645056769969,0.07061847045880529
서울특별시,2018Q4,2019Q1,train,current_regional_living_price_risk_score,-1,0.1341371919612982,47.5950782997763,0.2313838263012589,-0.2313838263012589,-0.031037176725311644
서울특별시,2019Q1,2019Q2,train,current_regional_living_price_risk_score,-1,0.1341371919612982,9.451901565995524,-1.3207259707232764,1.3207259707232764,0.17715847306318003
서울특별시,2019Q2,2019Q3,train,current_regional_living_price_risk_score,-1,0.1341371919612982,13.143176733780765,-1.170521796817676,1.170521796817676,0.1570105069546163
서울특별시,2019Q3,2019Q4,train,current_regional_living_price_risk_score,-1,0.1341371919612982,3.7472035794183447,-1.552859694031931,1.552859694031931,0.2082962388673239
서울특별시,2019Q4,2020Q1,train,current_regional_living_price_risk_score,-1,0.1341371919612982,11.6331096196868,-1.2319689588699672,1.2319689588699672,0.16525285672630147
서울특별시,2020Q1,2020Q2,train,current_regional_living_price_risk_score,-1,0.1341371919612982,27.9082774049217,-0.5697051011952756,0.5697051011952756,0.0764186425203615
서울특별시,2020Q2,2020Q3,train,current_regional_living_price_risk_score,-1,0.1341371919612982,36.017897091722595,-0.2397110827663056,0.2397110827663056,0.03215417152427457
서울특별시,2020Q3,2020Q4,train,current_regional_living_price_risk_score,-1,0.1341371919612982,63.08724832214765,0.8617861925414287,-0.8617861925414287,-0.11559757993852592
서울특별시,2020Q4,2021Q1,train,current_regional_living_price_risk_score,-1,0.1341371919612982,46.75615212527964,0.19724651404998567,-0.19724651404998567,-0.02645809351881983
서울특별시,2021Q1,2021Q2,train,current_regional_living_price_risk_score,-1,0.1341371919612982,67.05816554809843,1.0233694705307863,-1.0233694705307863,-0.1372719071159202
서울특별시,2021Q2,2021Q3,train,current_regional_living_price_risk_score,-1,0.1341371919612982,69.85458612975391,1.1371605113683623,-1.1371605113683623,-0.15253551780422603
서울특별시,2021Q3,2021Q4,train,current_regional_living_price_risk_score,-1,0.1341371919612982,51.95749440715883,0.40889785000787665,-0.40889785000787665,-0.05484840939906867
서울특별시,2021Q4,2022Q1,train,current_regional_living_price_risk_score,-1,0.1341371919612982,71.47651006711409,1.2031593150541562,-1.2031593150541562,-0.1613884120034434
세종특별자치시,2017Q1,2017Q2,train,current_regional_living_price_risk_score,-1,0.1341371919612982,,,,
세종특별자치시,2017Q2,2017Q3,train,current_regional_living_price_risk_score,-1,0.1341371919612982,,,,
세종특별자치시,2017Q3,2017Q4,train,current_regional_living_price_risk_score,-1,0.1341371919612982,,,,
세종특별자치시,2017Q4,2018Q1,train,current_regional_living_price_risk_score,-1,0.1341371919612982,,,,
세종특별자치시,2018Q1,2018Q2,train,current_regional_living_price_risk_score,-1,0.1341371919612982,,,,
세종특별자치시,2018Q2,2018Q3,train,current_regional_living_price_risk_score,-1,0.1341371919612982,,,,
세종특별자치시,2018Q3,2018Q4,train,current_regional_living_price_risk_score,-1,0.1341371919612982,,,,
세종특별자치시,2018Q4,2019Q1,train,current_regional_living_price_risk_score,-1,0.1341371919612982,,,,
세종특별자치시,2019Q1,2019Q2,train,current_regional_living_price_risk_score,-1,0.1341371919612982,,,,
세종특별자치시,2019Q2,2019Q3,train,current_regional_living_price_risk_score,-1,0.1341371919612982,,,,
세종특별자치시,2019Q3,2019Q4,train,current_regional_living_price_risk_score,-1,0.1341371919612982,,,,
세종특별자치시,2019Q4,2020Q1,train,current_regional_living_price_risk_score,-1,0.1341371919612982,,,,
세종특별자치시,2020Q1,2020Q2,train,current_regional_living_price_risk_score,-1,0.1341371919612982,,,,
세종특별자치시,2020Q2,2020Q3,train,current_regional_living_price_risk_score,-1,0.1341371919612982,,,,
세종특별자치시,2020Q3,2020Q4,train,current_regional_living_price_risk_score,-1,0.1341371919612982,,,,
세종특별자치시,2020Q4,2021Q1,train,current_regional_living_price_risk_score,-1,0.1341371919612982,,,,
세종특별자치시,2021Q1,2021Q2,train,current_regional_living_price_risk_score,-1,0.1341371919612982,52.68456375838925,0.43848352062564616,-0.43848352062564616,-0.058816948178028156
세종특별자치시,2021Q2,2021Q3,train,current_regional_living_price_risk_score,-1,0.1341371919612982,64.70917225950784,0.9277849962272231,-0.9277849962272231,-0.12445047413774335
세종특별자치시,2021Q3,2021Q4,train,current_regional_living_price_risk_score,-1,0.1341371919612982,44.57494407158837,0.10848950219667663,-0.10848950219667663,-0.014552477181941297
세종특별자치시,2021Q4,2022Q1,train,current_regional_living_price_risk_score,-1,0.1341371919612982,67.89709172259508,1.0575067827820592,-1.0575067827820592,-0.14185099032241194
울산광역시,2017Q1,2017Q2,train,current_regional_living_price_risk_score,-1,0.1341371919612982,64.87695749440716,0.9346124586774776,-0.9346124586774776,-0.12536629077904168
울산광역시,2017Q2,2017Q3,train,current_regional_living_price_risk_score,-1,0.1341371919612982,72.59507829977628,1.2486757313891863,-1.2486757313891863,-0.1674938562787657
울산광역시,2017Q3,2017Q4,train,current_regional_living_price_risk_score,-1,0.1341371919612982,68.17673378076063,1.0688858868658169,-1.0688858868658169,-0.14337735139124255
울산광역시,2017Q4,2018Q1,train,current_regional_living_price_risk_score,-1,0.1341371919612982,13.758389261744966,-1.1454877678334094,1.1454877678334094,0.15365251260318902
울산광역시,2018Q1,2018Q2,train,current_regional_living_price_risk_score,-1,0.1341371919612982,14.87695749440716,-1.099971351498379,1.099971351498379,0.14754706832786668
울산광역시,2018Q2,2018Q3,train,current_regional_living_price_risk_score,-1,0.1341371919612982,12.695749440715884,-1.1887283633516883,1.1887283633516883,0.15945268466474524
울산광역시,2018Q3,2018Q4,train,current_regional_living_price_risk_score,-1,0.1341371919612982,26.51006711409396,-0.6266006216140635,0.6266006216140635,0.0840504478645144
울산광역시,2018Q4,2019Q1,train,current_regional_living_price_risk_score,-1,0.1341371919612982,38.47874720357942,-0.13957496682923892,0.13957496682923892,0.01872219411856545
울산광역시,2019Q1,2019Q2,train,current_regional_living_price_risk_score,-1,0.1341371919612982,3.6353467561521255,-1.5574113356654342,1.5574113356654342,0.20890678329485618
울산광역시,2019Q2,2019Q3,train,current_regional_living_price_risk_score,-1,0.1341371919612982,3.299776286353468,-1.5710662605659431,1.5710662605659431,0.21073841657745285
울산광역시,2019Q3,2019Q4,train,current_regional_living_price_risk_score,-1,0.1341371919612982,1.0,-1.6646480125507657,1.6646480125507657,0.2232912100075156
울산광역시,2019Q4,2020Q1,train,current_regional_living_price_risk_score,-1,0.1341371919612982,4.026845637583893,-1.5414805899481736,1.5414805899481736,0.20676987779849335
울산광역시,2020Q1,2020Q2,train,current_regional_living_price_risk_score,-1,0.1341371919612982,23.042505592841167,-0.7677015122526575,0.7677015122526575,0.10297732511801364
울산광역시,2020Q2,2020Q3,train,current_regional_living_price_risk_score,-1,0.1341371919612982,29.921700223713646,-0.487775551792221,0.487775551792221,0.0654288428247813
울산광역시,2020Q3,2020Q4,train,current_regional_living_price_risk_score,-1,0.1341371919612982,54.86577181208054,0.5272405324789557,-0.5272405324789557,-0.07072256451490676
울산광역시,2020Q4,2021Q1,train,current_regional_living_price_risk_score,-1,0.1341371919612982,50.95078299776287,0.36793307530634983,-0.36793307530634983,-0.04935350955127863
울산광역시,2021Q1,2021Q2,train,current_regional_living_price_risk_score,-1,0.1341371919612982,65.93959731543625,0.9778530541957563,-0.9778530541957563,-0.13116646284059788
울산광역시,2021Q2,2021Q3,train,current_regional_living_price_risk_score,-1,0.1341371919612982,79.75391498881432,1.5399807959333809,-1.5399807959333809,-0.2065686996408287
울산광역시,2021Q3,2021Q4,train,current_regional_living_price_risk_score,-1,0.1341371919612982,74.66442953020133,1.3328811016089923,-1.3328811016089923,-0.178788928188112
울산광역시,2021Q4,2022Q1,train,current_regional_living_price_risk_score,-1,0.1341371919612982,74.4407158836689,1.3237778183419866,-1.3237778183419866,-0.1775678393330476
인천광역시,2017Q1,2017Q2,train,current_regional_living_price_risk_score,-1,0.1341371919612982,59.61968680089486,0.720685301902835,-0.720685301902835,-0.09667070268502671
인천광역시,2017Q2,2017Q3,train,current_regional_living_price_risk_score,-1,0.1341371919612982,54.92170022371365,0.5295163532957073,-0.5295163532957073,-0.0710278367286729
인천광역시,2017Q3,2017Q4,train,current_regional_living_price_risk_score,-1,0.1341371919612982,65.49217002237135,0.9596464876617435,-0.9596464876617435,-0.12872428513046888
인천광역시,2017Q4,2018Q1,train,current_regional_living_price_risk_score,-1,0.1341371919612982,18.624161073825505,-0.9474913567760275,0.9474913567760275,0.12709383000553687
인천광역시,2018Q1,2018Q2,train,current_regional_living_price_risk_score,-1,0.1341371919612982,20.58165548098434,-0.8678376281897243,0.8678376281897243,0.11640930252372278
인천광역시,2018Q2,2018Q3,train,current_regional_living_price_risk_score,-1,0.1341371919612982,30.8165548098434,-0.45136241872419675,0.45136241872419675,0.06054448740452344
인천광역시,2018Q3,2018Q4,train,current_regional_living_price_risk_score,-1,0.1341371919612982,46.14093959731543,0.17221248506571876,-0.17221248506571876,-0.023100099167392515
인천광역시,2018Q4,2019Q1,train,current_regional_living_price_risk_score,-1,0.1341371919612982,60.85011185682327,0.7707533598713682,-0.7707533598713682,-0.10338669138788126
인천광역시,2019Q1,2019Q2,train,current_regional_living_price_risk_score,-1,0.1341371919612982,9.675615212527966,-1.3116226874562702,1.3116226874562702,0.17593738420811555
인천광역시,2019Q2,2019Q3,train,current_regional_living_price_risk_score,-1,0.1341371919612982,16.72259507829978,-1.024869264545579,1.024869264545579,0.13747308527358484
인천광역시,2019Q3,2019Q4,train,current_regional_living_price_risk_score,-1,0.1341371919612982,2.9642058165548097,-1.5847211854664522,1.5847211854664522,0.21257004986004954
인천광역시,2019Q4,2020Q1,train,current_regional_living_price_risk_score,-1,0.1341371919612982,7.885906040268456,-1.3844489535923188,1.3844489535923188,0.18570609504863128
인천광역시,2020Q1,2020Q2,train,current_regional_living_price_risk_score,-1,0.1341371919612982,27.181208053691275,-0.5992907718130454,0.5992907718130454,0.08038718129932101
인천광역시,2020Q2,2020Q3,train,current_regional_living_price_risk_score,-1,0.1341371919612982,33.7248322147651,-0.3330197362531178,0.3330197362531178,0.04467033228868536
인천광역시,2020Q3,2020Q4,train,current_regional_living_price_risk_score,-1,0.1341371919612982,60.40268456375839,0.752546793337356,-0.752546793337356,-0.10094451367775233
인천광역시,2020Q4,2021Q1,train,current_regional_living_price_risk_score,-1,0.1341371919612982,49.16107382550336,0.295106809170301,-0.295106809170301,-0.03958479871076286
인천광역시,2021Q1,2021Q2,train,current_regional_living_price_risk_score,-1,0.1341371919612982,67.9530201342282,1.0597826035988112,-1.0597826035988112,-0.14215626253617814
인천광역시,2021Q2,2021Q3,train,current_regional_living_price_risk_score,-1,0.1341371919612982,78.18791946308725,1.4762578130643387,-1.4762578130643387,-0.19802107765537746
인천광역시,2021Q3,2021Q4,train,current_regional_living_price_risk_score,-1,0.1341371919612982,64.31767337807607,0.9118542505099623,-0.9118542505099623,-0.1223135686413805
인천광역시,2021Q4,2022Q1,train,current_regional_living_price_risk_score,-1,0.1341371919612982,79.25055928411633,1.5194984085826173,-1.5194984085826173,-0.20382124971693366
전라남도,2017Q1,2017Q2,train,current_regional_living_price_risk_score,-1,0.1341371919612982,59.28411633109619,0.7070303770023254,-0.7070303770023254,-0.09483906940242996
전라남도,2017Q2,2017Q3,train,current_regional_living_price_risk_score,-1,0.1341371919612982,53.02013422818792,0.4521384455261557,-0.4521384455261557,-0.06064858146062491
전라남도,2017Q3,2017Q4,train,current_regional_living_price_risk_score,-1,0.1341371919612982,63.702460850111855,0.8868202215256954,-0.8868202215256954,-0.1189555742899532
전라남도,2017Q4,2018Q1,train,current_regional_living_price_risk_score,-1,0.1341371919612982,25.50335570469799,-0.6675653963155906,0.6675653963155906,0.08954534771230449
전라남도,2018Q1,2018Q2,train,current_regional_living_price_risk_score,-1,0.1341371919612982,10.40268456375839,-1.2820370168385005,1.2820370168385005,0.17196884542915603
전라남도,2018Q2,2018Q3,train,current_regional_living_price_risk_score,-1,0.1341371919612982,22.03579418344519,-0.8086662869541849,0.8086662869541849,0.10847222496580375
전라남도,2018Q3,2018Q4,train,current_regional_living_price_risk_score,-1,0.1341371919612982,43.45637583892617,0.06297308586164603,-0.06297308586164603,-0.008447032906618928
전라남도,2018Q4,2019Q1,train,current_regional_living_price_risk_score,-1,0.1341371919612982,54.41834451901567,0.5090339659449439,-0.5090339659449439,-0.06828038680477787
전라남도,2019Q1,2019Q2,train,current_regional_living_price_risk_score,-1,0.1341371919612982,12.97539149888143,-1.1773492592679309,1.1773492592679309,0.15792632359591469
전라남도,2019Q2,2019Q3,train,current_regional_living_price_risk_score,-1,0.1341371919612982,20.637583892617453,-0.8655618073729727,0.8655618073729727,0.11610403030995665
전라남도,2019Q3,2019Q4,train,current_regional_living_price_risk_score,-1,0.1341371919612982,1.9574944071588367,-1.6256859601679798,1.6256859601679798,0.21806494970783968
전라남도,2019Q4,2020Q1,train,current_regional_living_price_risk_score,-1,0.1341371919612982,12.472035794183446,-1.1978316466186942,1.1978316466186942,0.1606737735198097
전라남도,2020Q1,2020Q2,train,current_regional_living_price_risk_score,-1,0.1341371919612982,32.77404921700224,-0.37170869013789337,0.37170869013789337,0.049859959922709314
전라남도,2020Q2,2020Q3,train,current_regional_living_price_risk_score,-1,0.1341371919612982,36.40939597315437,-0.22378033704904476,0.22378033704904476,0.03001726602791173
전라남도,2020Q3,2020Q4,train,current_regional_living_price_risk_score,-1,0.1341371919612982,67.67337807606263,1.0484034995150529,-1.0484034995150529,-0.14062990146734744
전라남도,2020Q4,2021Q1,train,current_regional_living_price_risk_score,-1,0.1341371919612982,51.230425055928414,0.3793121793901072,-0.3793121793901072,-0.05087987062010919
전라남도,2021Q1,2021Q2,train,current_regional_living_price_risk_score,-1,0.1341371919612982,65.49217002237135,0.9596464876617435,-0.9596464876617435,-0.12872428513046888
전라남도,2021Q2,2021Q3,train,current_regional_living_price_risk_score,-1,0.1341371919612982,77.2930648769575,1.4398446799963145,-1.4398446799963145,-0.1931367222351196
전라남도,2021Q3,2021Q4,train,current_regional_living_price_risk_score,-1,0.1341371919612982,53.74720357941835,0.48172411614392546,-0.48172411614392546,-0.06461712023958444
전라남도,2021Q4,2022Q1,train,current_regional_living_price_risk_score,-1,0.1341371919612982,71.25279642058166,1.1940560317871505,-1.1940560317871505,-0.16016732314837898
전북특별자치도,2017Q1,2017Q2,train,current_regional_living_price_risk_score,-1,0.1341371919612982,59.00447427293065,0.6956512729185681,-0.6956512729185681,-0.0933127083335994
전북특별자치도,2017Q2,2017Q3,train,current_regional_living_price_risk_score,-1,0.1341371919612982,41.55480984340044,-0.014404821907905641,0.014404821907905641,0.0019322223614290526
전북특별자치도,2017Q3,2017Q4,train,current_regional_living_price_risk_score,-1,0.1341371919612982,59.451901565995534,0.7138578394525805,-0.7138578394525805,-0.09575488604372838
전북특별자치도,2017Q4,2018Q1,train,current_regional_living_price_risk_score,-1,0.1341371919612982,25.50335570469799,-0.6675653963155906,0.6675653963155906,0.08954534771230449
전북특별자치도,2018Q1,2018Q2,train,current_regional_living_price_risk_score,-1,0.1341371919612982,25.5592841163311,-0.6652895754988393,0.6652895754988393,0.0892400754985384
전북특별자치도,2018Q2,2018Q3,train,current_regional_living_price_risk_score,-1,0.1341371919612982,35.51454138702461,-0.26019347011706934,0.26019347011706934,0.034901621448169634
전북특별자치도,2018Q3,2018Q4,train,current_regional_living_price_risk_score,-1,0.1341371919612982,47.93064876957495,0.24503875120176785,-0.24503875120176785,-0.032868810007908325
전북특별자치도,2018Q4,2019Q1,train,current_regional_living_price_risk_score,-1,0.1341371919612982,63.81431767337807,0.8913718631591983,-0.8913718631591983,-0.1195661187174854
전북특별자치도,2019Q1,2019Q2,train,current_regional_living_price_risk_score,-1,0.1341371919612982,16.21923937360179,-1.0453516518963426,1.0453516518963426,0.14022053519747987
전북특별자치도,2019Q2,2019Q3,train,current_regional_living_price_risk_score,-1,0.1341371919612982,26.51006711409396,-0.6266006216140635,0.6266006216140635,0.0840504478645144
전북특별자치도,2019Q3,2019Q4,train,current_regional_living_price_risk_score,-1,0.1341371919612982,2.684563758389262,-1.5961002895502099,1.5961002895502099,0.21409641092888013
전북특별자치도,2019Q4,2020Q1,train,current_regional_living_price_risk_score,-1,0.1341371919612982,8.165548098434003,-1.3730698495085614,1.3730698495085614,0.18417973397980072
전북특별자치도,2020Q1,2020Q2,train,current_regional_living_price_risk_score,-1,0.1341371919612982,27.01342281879195,-0.6061182342632998,0.6061182342632998,0.08130299794061936
전북특별자치도,2020Q2,2020Q3,train,current_regional_living_price_risk_score,-1,0.1341371919612982,32.38255033557047,-0.3876394358551542,0.3876394358551542,0.051996865419072155
전북특별자치도,2020Q3,2020Q4,train,current_regional_living_price_risk_score,-1,0.1341371919612982,64.5973154362416,0.9232333545937194,-0.9232333545937194,-0.12383992971021102
전북특별자치도,2020Q4,2021Q1,train,current_regional_living_price_risk_score,-1,0.1341371919612982,57.94183445190157,0.6524106774002894,-0.6524106774002894,-0.08751253627204321
전북특별자치도,2021Q1,2021Q2,train,current_regional_living_price_risk_score,-1,0.1341371919612982,66.16331096196868,0.986956337462762,-0.986956337462762,-0.1323875516956623
전북특별자치도,2021Q2,2021Q3,train,current_regional_living_price_risk_score,-1,0.1341371919612982,80.92841163310963,1.5877730330851634,-1.5877730330851634,-0.21297941612991722
전북특별자치도,2021Q3,2021Q4,train,current_regional_living_price_risk_score,-1,0.1341371919612982,69.1275167785235,1.107574840750593,-1.107574840750593,-0.14856697902526658
전북특별자치도,2021Q4,2022Q1,train,current_regional_living_price_risk_score,-1,0.1341371919612982,63.25503355704698,0.8686136549916832,-0.8686136549916832,-0.11651339657982425
제주특별자치도,2017Q1,2017Q2,train,current_regional_living_price_risk_score,-1,0.1341371919612982,64.82102908277405,0.9323366378607256,-0.9323366378607256,-0.12506101856527552
제주특별자치도,2017Q2,2017Q3,train,current_regional_living_price_risk_score,-1,0.1341371919612982,53.02013422818792,0.4521384455261557,-0.4521384455261557,-0.06064858146062491
제주특별자치도,2017Q3,2017Q4,train,current_regional_living_price_risk_score,-1,0.1341371919612982,65.38031319910515,0.955094846028241,-0.955094846028241,-0.1281137407029367
제주특별자치도,2017Q4,2018Q1,train,current_regional_living_price_risk_score,-1,0.1341371919612982,14.76510067114094,-1.104522993131882,1.104522993131882,0.1481576127553989
제주특별자치도,2018Q1,2018Q2,train,current_regional_living_price_risk_score,-1,0.1341371919612982,31.599552572706937,-0.4195009272896754,0.4195009272896754,0.05627067641179779
